; generated by Slic3r 1.2.9 on 2020-08-20 at 21:31:45

; external perimeters extrusion width = 0.70mm
; perimeters extrusion width = 0.70mm
; infill extrusion width = 0.70mm
; solid infill extrusion width = 0.70mm
; top infill extrusion width = 0.70mm

M302 S140;Enable extrusion at min 140 (Marlin)
G28 ; home all axes
G1 Z5 F5000 ; lift nozzle
M109 S190 ; wait for temperature to be reached
G92 E0;Set Extruder pos to 0
G1 E100.000 F1500.000; Extrude a couple of mm to get extruder ready


G21 ; set units to millimeters
G90 ; use absolute coordinates
M82 ; use absolute distances for extrusion
G92 E0
G1 Z0.350 F9000.000
G1 E-16.00000 F18000.00000
G92 E0
G1 X97.138 Y94.339 F9000.000
G1 E20.00000 F18000.00000
G1 X99.514 Y93.525 E20.52521 F600.000
G1 X111.472 Y93.525 E23.02604
G1 X112.586 Y93.689 E23.26161
G1 X121.244 Y96.289 E25.15211 F600.000
G1 X122.762 Y97.157 E25.51794
G1 X123.744 Y98.605 E25.88377
G1 X124.004 Y100.000 E26.18054
G1 X124.004 Y120.000 E30.36330
G1 X123.609 Y121.704 E30.72912
G1 X122.505 Y123.061 E31.09495
G1 X121.244 Y123.711 E31.39172
G1 X112.586 Y126.311 E33.28222
G1 X111.472 Y126.475 E33.51779
G1 X99.514 Y126.475 E36.01862
G1 X97.810 Y126.080 E36.38445
G1 X96.453 Y124.976 E36.75027
G1 X95.639 Y122.600 E37.27548
G1 X95.639 Y97.400 E42.54576
G1 X96.034 Y95.696 E42.91159
G1 X97.043 Y94.456 E43.24604
G1 X97.632 Y94.796 F9000.000
G1 X97.744 Y94.674 E43.28058 F600.000
G1 X99.514 Y94.150 E43.66662
G1 X111.472 Y94.150 E46.16744
G1 X112.406 Y94.288 E46.36503
G1 X121.064 Y96.888 E48.25553 F600.000
G1 X122.436 Y97.711 E48.59014
G1 X123.249 Y99.089 E48.92475
G1 X123.379 Y100.000 E49.11724
G1 X123.379 Y120.000 E53.30000
G1 X122.985 Y121.551 E53.63461
G1 X121.899 Y122.726 E53.96922
G1 X121.064 Y123.112 E54.16171
G1 X112.406 Y125.712 E56.05221
G1 X111.472 Y125.850 E56.24979
G1 X99.514 Y125.850 E58.75062
G1 X97.963 Y125.456 E59.08523
G1 X96.788 Y124.370 E59.41984
G1 X96.264 Y122.600 E59.80588
G1 X96.264 Y97.400 E65.07615
G1 X96.658 Y95.849 E65.41076
G1 X97.530 Y94.906 E65.67947
G1 X97.281 Y96.019 F9000.000
G1 X98.341 Y95.052 E65.97963 F600.000
G1 X99.514 Y94.775 E66.23161
G1 X111.472 Y94.775 E68.73244
G1 X112.227 Y94.886 E68.89203
G1 X120.884 Y97.486 E70.78253
G1 X122.093 Y98.259 E71.08269
G1 X122.754 Y100.000 E71.47214
G1 X122.754 Y120.000 E75.65490
G1 X122.362 Y121.381 E75.95506
G1 X120.884 Y122.514 E76.34452
G1 X112.227 Y125.114 E78.23502
G1 X111.472 Y125.225 E78.39461
G1 X99.514 Y125.225 E80.89543
G1 X98.133 Y124.833 E81.19560
G1 X97.165 Y123.773 E81.49576
G1 X96.889 Y122.600 E81.74774
G1 X96.889 Y97.400 E87.01801
G1 X97.240 Y96.164 E87.28681
G1 E71.28681 F18000.00000
G92 E0
G1 X109.872 Y118.400 F9000.000
G1 E20.00000 F18000.00000
G1 X109.872 Y121.000 E20.54376 F600.000
G1 X107.571 Y121.000 E21.02487
G1 X107.571 Y99.000 E25.62600
G1 X109.872 Y99.000 E26.10711
G1 X109.872 Y101.600 E26.65087
G1 X114.372 Y101.600 E27.59199
G1 X114.372 Y118.400 E31.10560
G1 X110.022 Y118.400 E32.01535
G1 X110.497 Y119.025 F9000.000
G1 X110.497 Y121.625 E32.55911 F600.000
G1 X106.947 Y121.625 E33.30160
G1 X106.947 Y98.375 E38.16410
G1 X110.497 Y98.375 E38.90659
G1 X110.497 Y100.975 E39.45035
G1 X114.997 Y100.975 E40.39147
G1 X114.997 Y119.025 E44.16646
G1 X110.647 Y119.025 E45.07621
G1 X111.122 Y119.650 F9000.000
G1 X111.122 Y122.250 E45.61997 F600.000
G1 X99.864 Y122.250 E47.97440
G1 X99.864 Y120.950 E48.24628
G1 X106.322 Y120.950 E49.59684
G1 X106.322 Y99.050 E54.17697
G1 X99.864 Y99.050 E55.52753
G1 X99.864 Y97.750 E55.79941
G1 X111.122 Y97.750 E58.15384
G1 X111.122 Y100.350 E58.69760
G1 X119.779 Y100.350 E60.50821
G1 X119.779 Y101.650 E60.78009
G1 X115.622 Y101.650 E61.64958
G1 X115.622 Y118.350 E65.14219
G1 X119.779 Y118.350 E66.01168
G1 X119.779 Y119.650 E66.28356
G1 X111.272 Y119.650 E68.06280
G1 X110.122 Y119.650 F9000.000
G1 X108.224 Y120.653 F9000.000
G1 X107.919 Y120.348 E68.15433 F600.000
G1 X107.919 Y119.451 E68.34447
G1 X109.120 Y120.653 E68.70489
G1 X109.525 Y120.161 E68.83998
G1 X107.919 Y118.555 E69.32169
G1 X107.919 Y117.659 E69.51183
G1 X109.525 Y119.265 E69.99355
G1 X109.525 Y118.368 E70.18368
G1 X107.919 Y116.762 E70.66540
G1 X107.919 Y115.866 E70.85554
G1 X110.106 Y118.053 E71.51156
G1 X111.002 Y118.053 E71.70170
G1 X107.919 Y114.970 E72.62662
G1 X107.919 Y114.073 E72.81676
G1 X111.898 Y118.053 E74.01057
G1 X112.795 Y118.053 E74.20071
G1 X107.919 Y113.177 E75.66342
G1 X107.919 Y112.281 E75.85355
G1 X113.691 Y118.053 E77.58516
G1 X114.025 Y117.490 E77.72393
G1 X107.919 Y111.384 E79.55560
G1 X107.919 Y110.488 E79.74573
G1 X114.025 Y116.594 E81.57740
G1 X114.025 Y115.697 E81.76754
G1 X107.919 Y109.592 E83.59920
G1 X107.919 Y108.695 E83.78934
G1 X114.025 Y114.801 E85.62101
G1 X114.025 Y113.905 E85.81115
G1 X107.919 Y107.799 E87.64281
G1 X107.919 Y106.903 E87.83295
G1 X114.025 Y113.008 E89.66462
G1 X114.025 Y112.112 E89.85475
G1 X107.919 Y106.006 E91.68642
G1 X107.919 Y105.110 E91.87656
G1 X114.025 Y111.216 E93.70823
G1 X114.025 Y110.319 E93.89836
G1 X107.919 Y104.214 E95.73003
G1 X107.919 Y103.317 E95.92017
G1 X114.025 Y109.423 E97.75184
G1 X114.025 Y108.527 E97.94197
G1 X107.919 Y102.421 E99.77364
G1 X107.919 Y101.525 E99.96378
G1 X114.025 Y107.630 E101.79544
G1 X114.025 Y106.734 E101.98558
G1 X107.919 Y100.628 E103.81725
G1 X109.525 Y100.441 F9000.000
G1 X108.430 Y99.347 E104.14548 F600.000
G1 X107.919 Y99.732 E104.28127
G1 X109.525 Y101.338 E104.76299
G1 X110.134 Y101.947 F9000.000
G1 X114.025 Y105.838 E105.93010 F600.000
G1 X114.025 Y104.941 E106.12023
G1 X111.030 Y101.947 E107.01845
G1 X111.927 Y101.947 E107.20858
G1 X114.025 Y104.045 E107.83790
G1 X114.025 Y103.149 E108.02804
G1 X112.823 Y101.947 E108.38847
G1 X113.719 Y101.947 E108.57860
G1 X114.025 Y102.252 E108.67014
G1 X115.309 Y101.000 F9000.000
G1 X119.467 Y101.000 E110.51362 F600.000
G1 E94.51362 F18000.00000
G92 E0
G1 X106.634 Y98.400 F9000.000
G1 E20.00000 F18000.00000
G1 X100.176 Y98.400 E22.86346 F600.000
G1 E6.86346 F18000.00000
G92 E0
G1 X100.176 Y121.600 F9000.000
G1 E20.00000 F18000.00000
G1 X106.634 Y121.600 E22.86346 F600.000
G1 E6.86346 F18000.00000
G92 E0
G1 X115.309 Y119.000 F9000.000
G1 E20.00000 F18000.00000
G1 X119.467 Y119.000 E21.84349 F600.000
G1 Z0.550 F9000.000
G1 X109.807 Y118.336 F9000.000
G1 X109.807 Y120.936 E22.17021 F600.000
G1 X107.636 Y120.936 E22.44311
G1 X107.636 Y99.064 E25.19159
G1 X109.807 Y99.064 E25.46449
G1 X109.807 Y101.664 E25.79122
G1 X114.307 Y101.664 E26.35671
G1 X114.307 Y118.336 E28.45173
G1 X109.957 Y118.336 E28.99837
G1 X110.465 Y118.993 F9000.000
G1 X110.465 Y121.593 E29.32509 F600.000
G1 X106.979 Y121.593 E29.76314
G1 X106.979 Y98.407 E32.67676
G1 X110.465 Y98.407 E33.11480
G1 X110.465 Y101.007 E33.44153
G1 X114.965 Y101.007 E34.00701
G1 X114.965 Y118.993 E36.26718
G1 X110.615 Y118.993 E36.81382
G1 X111.122 Y119.650 F9000.000
G1 X111.122 Y122.250 E37.14054 F600.000
G1 X99.610 Y122.250 E38.58716
G1 X99.610 Y120.950 E38.75053
G1 X106.322 Y120.950 E39.59396
G1 X106.322 Y99.050 E42.34600
G1 X99.610 Y99.050 E43.18943
G1 X99.610 Y97.750 E43.35280
G1 X111.122 Y97.750 E44.79942
G1 X111.122 Y100.350 E45.12614
G1 X120.027 Y100.350 E46.24518
G1 X120.027 Y101.650 E46.40854
G1 X115.622 Y101.650 E46.96209
G1 X115.622 Y118.350 E49.06067
G1 X120.027 Y118.350 E49.61422
G1 X120.027 Y119.650 E49.77759
G1 X111.272 Y119.650 E50.87777
G1 X110.122 Y119.650 F9000.000
G1 X109.441 Y120.244 F9000.000
G1 X109.115 Y120.570 E50.93723 F600.000
G1 X108.162 Y120.570 E51.06022
G1 X109.441 Y119.290 E51.29360
G1 X109.441 Y118.336 E51.41658
G1 X108.002 Y119.775 E51.67906
G1 X108.002 Y118.822 E51.80204
G1 X113.941 Y112.883 E52.88521
G1 X113.941 Y113.836 E53.00820
G1 X109.808 Y117.970 E53.76202
G1 X110.762 Y117.970 E53.88500
G1 X113.941 Y114.790 E54.46491
G1 X113.941 Y115.744 E54.58789
G1 X111.715 Y117.970 E54.99387
G1 X112.669 Y117.970 E55.11685
G1 X113.941 Y116.697 E55.34891
G1 X113.941 Y117.651 E55.47189
G1 X113.622 Y117.970 E55.53003
G1 X108.002 Y117.868 F9000.000
G1 X113.941 Y111.929 E56.61320 F600.000
G1 X113.941 Y110.975 E56.73619
G1 X108.002 Y116.915 E57.81936
G1 X108.002 Y115.961 E57.94234
G1 X113.941 Y110.022 E59.02552
G1 X113.941 Y109.068 E59.14850
G1 X108.002 Y115.007 E60.23168
G1 X108.002 Y114.054 E60.35466
G1 X113.941 Y108.114 E61.43783
G1 X113.941 Y107.161 E61.56081
G1 X108.002 Y113.100 E62.64399
G1 X108.002 Y112.146 E62.76697
G1 X113.941 Y106.207 E63.85015
G1 X113.941 Y105.254 E63.97313
G1 X108.002 Y111.193 E65.05631
G1 X108.002 Y110.239 E65.17929
G1 X113.941 Y104.300 E66.26246
G1 X113.941 Y103.346 E66.38544
G1 X108.002 Y109.285 E67.46862
G1 X108.002 Y108.332 E67.59160
G1 X113.941 Y102.393 E68.67478
G1 X113.350 Y102.030 E68.76421
G1 X108.002 Y107.378 E69.73954
G1 X108.002 Y106.425 E69.86252
G1 X112.396 Y102.030 E70.66392
G1 X111.443 Y102.030 E70.78690
G1 X108.002 Y105.471 E71.41438
G1 X108.002 Y104.517 E71.53736
G1 X110.489 Y102.030 E71.99092
G1 X109.535 Y102.030 E72.11391
G1 X108.002 Y103.564 E72.39354
G1 X108.002 Y102.610 E72.51652
G1 X109.441 Y101.171 E72.77900
G1 X109.441 Y100.217 E72.90198
G1 X108.002 Y101.656 E73.16445
G1 X108.002 Y100.703 E73.28743
G1 X109.274 Y99.430 E73.51949
G1 X108.321 Y99.430 E73.64247
G1 X108.002 Y99.749 E73.70060
G1 X106.650 Y98.400 F9000.000
G1 X99.938 Y98.400 E75.44256 F600.000
G1 E59.44256 F18000.00000
G92 E0
G1 X115.293 Y101.000 F9000.000
G1 E20.00000 F18000.00000
G1 X119.698 Y101.000 E21.14325 F600.000
G1 E5.14325 F18000.00000
G92 E0
G1 X119.698 Y119.000 F9000.000
G1 E20.00000 F18000.00000
G1 X115.293 Y119.000 E21.14325 F600.000
G1 E5.14325 F18000.00000
G92 E0
G1 X106.650 Y121.600 F9000.000
G1 E20.00000 F18000.00000
G1 X99.938 Y121.600 E21.74196 F600.000
M106 S255
G1 Z0.750 F9000.000
G1 E5.74196 F18000.00000
G92 E0
G1 X109.807 Y118.336 F9000.000
G1 E20.00000 F18000.00000
G1 X109.807 Y120.936 E20.32673 F600.000
G1 X107.636 Y120.936 E20.59963
G1 X107.636 Y99.064 E23.34810
G1 X109.807 Y99.064 E23.62101
G1 X109.807 Y101.664 E23.94773
G1 X114.307 Y101.664 E24.51322
G1 X114.307 Y118.336 E26.60824
G1 X109.957 Y118.336 E27.15488
G1 X110.465 Y118.993 F9000.000
G1 X110.465 Y121.593 E27.48161 F600.000
G1 X106.979 Y121.593 E27.91965
G1 X106.979 Y98.407 E30.83327
G1 X110.465 Y98.407 E31.27131
G1 X110.465 Y101.007 E31.59804
G1 X114.965 Y101.007 E32.16353
G1 X114.965 Y118.993 E34.42369
G1 X110.615 Y118.993 E34.97033
G1 X111.122 Y119.650 F9000.000
G1 X111.122 Y122.250 E35.29706 F600.000
G1 X99.425 Y122.250 E36.76690
G1 X99.425 Y120.950 E36.93026
G1 X106.322 Y120.950 E37.79692
G1 X106.322 Y99.050 E40.54895
G1 X99.425 Y99.050 E41.41561
G1 X99.425 Y97.750 E41.57897
G1 X111.122 Y97.750 E43.04881
G1 X111.122 Y100.350 E43.37554
G1 X120.207 Y100.350 E44.51719
G1 X120.207 Y101.650 E44.68055
G1 X115.622 Y101.650 E45.25672
G1 X115.622 Y118.350 E47.35531
G1 X120.207 Y118.350 E47.93147
G1 X120.207 Y119.650 E48.09484
G1 X111.272 Y119.650 E49.21764
G1 X110.122 Y119.650 F9000.000
G1 X108.321 Y120.570 F9000.000
G1 X108.002 Y120.251 E49.27578 F600.000
G1 X108.002 Y119.297 E49.39876
G1 X109.274 Y120.570 E49.63081
G1 X109.441 Y119.783 E49.73454
G1 X108.002 Y118.344 E49.99701
G1 X108.002 Y117.390 E50.11999
G1 X109.441 Y118.829 E50.38247
G1 X109.535 Y117.970 E50.49398
G1 X108.002 Y116.436 E50.77361
G1 X108.002 Y115.483 E50.89659
G1 X110.489 Y117.970 E51.35015
G1 X111.443 Y117.970 E51.47313
G1 X108.002 Y114.529 E52.10062
G1 X108.002 Y113.575 E52.22360
G1 X112.396 Y117.970 E53.02500
G1 X113.350 Y117.970 E53.14798
G1 X108.002 Y112.622 E54.12331
G1 X108.002 Y111.668 E54.24629
G1 X113.941 Y117.607 E55.32946
G1 X113.941 Y116.654 E55.45245
G1 X108.002 Y110.715 E56.53562
G1 X108.002 Y109.761 E56.65860
G1 X113.941 Y115.700 E57.74178
G1 X113.941 Y114.746 E57.86476
G1 X108.002 Y108.807 E58.94794
G1 X108.002 Y107.854 E59.07092
G1 X113.941 Y113.793 E60.15409
G1 X113.941 Y112.839 E60.27707
G1 X108.002 Y106.900 E61.36025
G1 X108.002 Y105.946 E61.48323
G1 X113.941 Y111.886 E62.56641
G1 X113.941 Y110.932 E62.68939
G1 X108.002 Y104.993 E63.77257
G1 X108.002 Y104.039 E63.89555
G1 X113.941 Y109.978 E64.97872
G1 X113.941 Y109.025 E65.10170
G1 X108.002 Y103.085 E66.18488
G1 X108.002 Y102.132 E66.30786
G1 X113.941 Y108.071 E67.39104
G1 X113.941 Y107.117 E67.51402
G1 X108.002 Y101.178 E68.59719
G1 X109.441 Y101.664 F9000.000
G1 X108.002 Y100.225 E68.85967 F600.000
G1 X108.162 Y99.430 E68.96413
G1 X109.441 Y100.710 E69.19751
G1 X109.441 Y99.756 E69.32049
G1 X109.115 Y99.430 E69.37996
G1 X109.808 Y102.030 F9000.000
G1 X113.941 Y106.164 E70.13378 F600.000
G1 X113.941 Y105.210 E70.25676
G1 X110.762 Y102.030 E70.83666
G1 X111.715 Y102.030 E70.95965
G1 X113.941 Y104.256 E71.36563
G1 X113.941 Y103.303 E71.48861
G1 X112.669 Y102.030 E71.72067
G1 X113.622 Y102.030 E71.84365
G1 X113.941 Y102.349 E71.90179
G1 X115.293 Y101.000 F9000.000
G1 X119.878 Y101.000 E73.09175 F600.000
G1 E57.09175 F18000.00000
G92 E0
G1 X106.650 Y98.400 F9000.000
G1 E20.00000 F18000.00000
G1 X99.754 Y98.400 E21.78992 F600.000
G1 E5.78992 F18000.00000
G92 E0
G1 X99.754 Y121.600 F9000.000
G1 E20.00000 F18000.00000
G1 X106.650 Y121.600 E21.78992 F600.000
G1 E5.78992 F18000.00000
G92 E0
G1 X115.293 Y119.000 F9000.000
G1 E20.00000 F18000.00000
G1 X119.878 Y119.000 E21.18997 F600.000
G1 Z0.950 F9000.000
G1 X109.807 Y118.336 F9000.000
G1 X109.807 Y120.936 E21.51669 F600.000
G1 X107.636 Y120.936 E21.78959
G1 X107.636 Y99.064 E24.53807
G1 X109.807 Y99.064 E24.81097
G1 X109.807 Y101.664 E25.13770
G1 X114.307 Y101.664 E25.70319
G1 X114.307 Y118.336 E27.79821
G1 X109.957 Y118.336 E28.34485
G1 X110.465 Y118.993 F9000.000
G1 X110.465 Y121.593 E28.67157 F600.000
G1 X106.979 Y121.593 E29.10962
G1 X106.979 Y98.407 E32.02324
G1 X110.465 Y98.407 E32.46128
G1 X110.465 Y101.007 E32.78801
G1 X114.965 Y101.007 E33.35349
G1 X114.965 Y118.993 E35.61366
G1 X110.615 Y118.993 E36.16030
G1 X111.122 Y119.650 F9000.000
G1 X111.122 Y122.250 E36.48702 F600.000
G1 X99.240 Y122.250 E37.98008
G1 X99.240 Y120.950 E38.14345
G1 X106.322 Y120.950 E39.03332
G1 X106.322 Y99.050 E41.78536
G1 X99.240 Y99.050 E42.67523
G1 X99.240 Y97.750 E42.83860
G1 X111.122 Y97.750 E44.33166
G1 X111.122 Y100.350 E44.65838
G1 X120.387 Y100.350 E45.82266
G1 X120.387 Y101.650 E45.98602
G1 X115.622 Y101.650 E46.58481
G1 X115.622 Y118.350 E48.68339
G1 X120.387 Y118.350 E49.28218
G1 X120.387 Y119.650 E49.44554
G1 X111.272 Y119.650 E50.59097
G1 X110.122 Y119.650 F9000.000
G1 X109.441 Y120.244 F9000.000
G1 X109.115 Y120.570 E50.65043 F600.000
G1 X108.162 Y120.570 E50.77341
G1 X109.441 Y119.290 E51.00679
G1 X109.441 Y118.336 E51.12978
G1 X108.002 Y119.775 E51.39225
G1 X108.002 Y118.822 E51.51523
G1 X113.941 Y112.883 E52.59841
G1 X113.941 Y113.836 E52.72139
G1 X109.808 Y117.970 E53.47521
G1 X110.762 Y117.970 E53.59820
G1 X113.941 Y114.790 E54.17810
G1 X113.941 Y115.744 E54.30108
G1 X111.715 Y117.970 E54.70706
G1 X112.669 Y117.970 E54.83004
G1 X113.941 Y116.697 E55.06210
G1 X113.941 Y117.651 E55.18508
G1 X113.622 Y117.970 E55.24322
G1 X108.002 Y117.868 F9000.000
G1 X113.941 Y111.929 E56.32640 F600.000
G1 X113.941 Y110.975 E56.44938
G1 X108.002 Y116.915 E57.53256
G1 X108.002 Y115.961 E57.65554
G1 X113.941 Y110.022 E58.73871
G1 X113.941 Y109.068 E58.86169
G1 X108.002 Y115.007 E59.94487
G1 X108.002 Y114.054 E60.06785
G1 X113.941 Y108.114 E61.15103
G1 X113.941 Y107.161 E61.27401
G1 X108.002 Y113.100 E62.35718
G1 X108.002 Y112.146 E62.48017
G1 X113.941 Y106.207 E63.56334
G1 X113.941 Y105.254 E63.68632
G1 X108.002 Y111.193 E64.76950
G1 X108.002 Y110.239 E64.89248
G1 X113.941 Y104.300 E65.97566
G1 X113.941 Y103.346 E66.09864
G1 X108.002 Y109.285 E67.18181
G1 X108.002 Y108.332 E67.30480
G1 X113.941 Y102.393 E68.38797
G1 X113.350 Y102.030 E68.47741
G1 X108.002 Y107.378 E69.45273
G1 X108.002 Y106.425 E69.57571
G1 X112.396 Y102.030 E70.37712
G1 X111.443 Y102.030 E70.50010
G1 X108.002 Y105.471 E71.12758
G1 X108.002 Y104.517 E71.25056
G1 X110.489 Y102.030 E71.70412
G1 X109.535 Y102.030 E71.82710
G1 X108.002 Y103.564 E72.10674
G1 X108.002 Y102.610 E72.22972
G1 X109.441 Y101.171 E72.49219
G1 X109.441 Y100.217 E72.61517
G1 X108.002 Y101.656 E72.87765
G1 X108.002 Y100.703 E73.00063
G1 X109.274 Y99.430 E73.23268
G1 X108.321 Y99.430 E73.35566
