; generated by Slic3r 1.2.9 on 2020-08-20 at 16:42:47

; external perimeters extrusion width = 0.70mm
; perimeters extrusion width = 0.70mm
; infill extrusion width = 0.70mm
; solid infill extrusion width = 0.70mm
; top infill extrusion width = 0.70mm

M302 S140;Enable extrusion at min 140 (Marlin)
G28 ; home all axes
G1 Z5 F5000 ; lift nozzle
M109 S190 ; wait for temperature to be reached
G92 E0;Set Extruder pos to 0
G1 E100.000 F1500.000; Extrude a couple of mm to get extruder ready


G21 ; set units to millimeters
G90 ; use absolute coordinates
M82 ; use absolute distances for extrusion
G92 E0
G1 Z0.350 F9000.000
G1 E-4.00000 F9000.00000
G92 E0
G1 X97.138 Y94.339 F9000.000
G1 E5.50000 F9000.00000
G1 X99.514 Y93.525 E6.02521 F600.000
G1 X111.472 Y93.525 E8.52604
G1 X112.586 Y93.689 E8.76161
G1 X121.244 Y96.289 E10.65211 F600.000
G1 X122.762 Y97.157 E11.01794
G1 X123.744 Y98.605 E11.38377
G1 X124.004 Y100.000 E11.68054
G1 X124.004 Y120.000 E15.86330
G1 X123.609 Y121.704 E16.22912
G1 X122.505 Y123.061 E16.59495
G1 X121.244 Y123.711 E16.89172
G1 X112.586 Y126.311 E18.78222
G1 X111.472 Y126.475 E19.01779
G1 X99.514 Y126.475 E21.51862
G1 X97.810 Y126.080 E21.88445
G1 X96.453 Y124.976 E22.25027
G1 X95.639 Y122.600 E22.77548
G1 X95.639 Y97.400 E28.04576
G1 X96.034 Y95.696 E28.41159
G1 X97.043 Y94.456 E28.74604
G1 X97.632 Y94.796 F9000.000
G1 X97.744 Y94.674 E28.78058 F600.000
G1 X99.514 Y94.150 E29.16662
G1 X111.472 Y94.150 E31.66744
G1 X112.406 Y94.288 E31.86503
G1 X121.064 Y96.888 E33.75553 F600.000
G1 X122.436 Y97.711 E34.09014
G1 X123.249 Y99.089 E34.42475
G1 X123.379 Y100.000 E34.61724
G1 X123.379 Y120.000 E38.80000
G1 X122.985 Y121.551 E39.13461
G1 X121.899 Y122.726 E39.46922
G1 X121.064 Y123.112 E39.66171
G1 X112.406 Y125.712 E41.55221
G1 X111.472 Y125.850 E41.74979
G1 X99.514 Y125.850 E44.25062
G1 X97.963 Y125.456 E44.58523
G1 X96.788 Y124.370 E44.91984
G1 X96.264 Y122.600 E45.30588
G1 X96.264 Y97.400 E50.57615
G1 X96.658 Y95.849 E50.91076
G1 X97.530 Y94.906 E51.17947
G1 X97.281 Y96.019 F9000.000
G1 X98.341 Y95.052 E51.47963 F600.000
G1 X99.514 Y94.775 E51.73161
G1 X111.472 Y94.775 E54.23244
G1 X112.227 Y94.886 E54.39203
G1 X120.884 Y97.486 E56.28253
G1 X122.093 Y98.259 E56.58269
G1 X122.754 Y100.000 E56.97214
G1 X122.754 Y120.000 E61.15490
G1 X122.362 Y121.381 E61.45506
G1 X120.884 Y122.514 E61.84452
G1 X112.227 Y125.114 E63.73502
G1 X111.472 Y125.225 E63.89461
G1 X99.514 Y125.225 E66.39543
G1 X98.133 Y124.833 E66.69560
G1 X97.165 Y123.773 E66.99576
G1 X96.889 Y122.600 E67.24774
G1 X96.889 Y97.400 E72.51801
G1 X97.240 Y96.164 E72.78681
G1 E68.78681 F9000.00000
G92 E0
G1 X109.872 Y118.400 F9000.000
G1 E5.50000 F9000.00000
G1 X109.872 Y121.000 E6.04376 F600.000
G1 X107.571 Y121.000 E6.52487
G1 X107.571 Y99.000 E11.12600
G1 X109.872 Y99.000 E11.60711
G1 X109.872 Y101.600 E12.15087
G1 X114.372 Y101.600 E13.09199
G1 X114.372 Y118.400 E16.60560
G1 X110.022 Y118.400 E17.51535
G1 X110.497 Y119.025 F9000.000
G1 X110.497 Y121.625 E18.05911 F600.000
G1 X106.947 Y121.625 E18.80160
G1 X106.947 Y98.375 E23.66410
G1 X110.497 Y98.375 E24.40659
G1 X110.497 Y100.975 E24.95035
G1 X114.997 Y100.975 E25.89147
G1 X114.997 Y119.025 E29.66646
G1 X110.647 Y119.025 E30.57621
G1 X111.122 Y119.650 F9000.000
G1 X111.122 Y122.250 E31.11997 F600.000
G1 X99.864 Y122.250 E33.47440
G1 X99.864 Y120.950 E33.74628
G1 X106.322 Y120.950 E35.09684
G1 X106.322 Y99.050 E39.67697
G1 X99.864 Y99.050 E41.02753
G1 X99.864 Y97.750 E41.29941
G1 X111.122 Y97.750 E43.65384
G1 X111.122 Y100.350 E44.19760
G1 X119.779 Y100.350 E46.00821
G1 X119.779 Y101.650 E46.28009
G1 X115.622 Y101.650 E47.14958
G1 X115.622 Y118.350 E50.64219
G1 X119.779 Y118.350 E51.51168
G1 X119.779 Y119.650 E51.78356
G1 X111.272 Y119.650 E53.56280
G1 X110.122 Y119.650 F9000.000
G1 X108.224 Y120.653 F9000.000
G1 X107.919 Y120.348 E53.65433 F600.000
G1 X107.919 Y119.451 E53.84447
G1 X109.120 Y120.653 E54.20489
G1 X109.525 Y120.161 E54.33998
G1 X107.919 Y118.555 E54.82169
G1 X107.919 Y117.659 E55.01183
G1 X109.525 Y119.265 E55.49355
G1 X109.525 Y118.368 E55.68368
G1 X107.919 Y116.762 E56.16540
G1 X107.919 Y115.866 E56.35554
G1 X110.106 Y118.053 E57.01156
G1 X111.002 Y118.053 E57.20170
G1 X107.919 Y114.970 E58.12662
G1 X107.919 Y114.073 E58.31676
G1 X111.898 Y118.053 E59.51057
G1 X112.795 Y118.053 E59.70071
G1 X107.919 Y113.177 E61.16342
G1 X107.919 Y112.281 E61.35355
G1 X113.691 Y118.053 E63.08516
G1 X114.025 Y117.490 E63.22393
G1 X107.919 Y111.384 E65.05560
G1 X107.919 Y110.488 E65.24573
G1 X114.025 Y116.594 E67.07740
G1 X114.025 Y115.697 E67.26754
G1 X107.919 Y109.592 E69.09920
G1 X107.919 Y108.695 E69.28934
G1 X114.025 Y114.801 E71.12101
G1 X114.025 Y113.905 E71.31115
G1 X107.919 Y107.799 E73.14281
G1 X107.919 Y106.903 E73.33295
G1 X114.025 Y113.008 E75.16462
G1 X114.025 Y112.112 E75.35475
G1 X107.919 Y106.006 E77.18642
G1 X107.919 Y105.110 E77.37656
G1 X114.025 Y111.216 E79.20823
G1 X114.025 Y110.319 E79.39836
G1 X107.919 Y104.214 E81.23003
G1 X107.919 Y103.317 E81.42017
G1 X114.025 Y109.423 E83.25184
G1 X114.025 Y108.527 E83.44197
G1 X107.919 Y102.421 E85.27364
G1 X107.919 Y101.525 E85.46378
G1 X114.025 Y107.630 E87.29544
G1 X114.025 Y106.734 E87.48558
G1 X107.919 Y100.628 E89.31725
G1 X109.525 Y100.441 F9000.000
G1 X108.430 Y99.347 E89.64548 F600.000
G1 X107.919 Y99.732 E89.78127
G1 X109.525 Y101.338 E90.26299
G1 X110.134 Y101.947 F9000.000
G1 X114.025 Y105.838 E91.43010 F600.000
G1 X114.025 Y104.941 E91.62023
G1 X111.030 Y101.947 E92.51845
G1 X111.927 Y101.947 E92.70858
G1 X114.025 Y104.045 E93.33790
G1 X114.025 Y103.149 E93.52804
G1 X112.823 Y101.947 E93.88847
G1 X113.719 Y101.947 E94.07860
G1 X114.025 Y102.252 E94.17014
G1 X115.309 Y101.000 F9000.000
G1 X119.467 Y101.000 E96.01362 F600.000
G1 E92.01362 F9000.00000
G92 E0
G1 X106.634 Y98.400 F9000.000
G1 E5.50000 F9000.00000
G1 X100.176 Y98.400 E8.36346 F600.000
G1 E4.36346 F9000.00000
G92 E0
G1 X100.176 Y121.600 F9000.000
G1 E5.50000 F9000.00000
G1 X106.634 Y121.600 E8.36346 F600.000
G1 E4.36346 F9000.00000
G92 E0
G1 X115.309 Y119.000 F9000.000
G1 E5.50000 F9000.00000
G1 X119.467 Y119.000 E7.34349 F600.000
G1 Z0.550 F9000.000
G1 X109.807 Y118.336 F9000.000
G1 X109.807 Y120.936 E7.67021 F600.000
G1 X107.636 Y120.936 E7.94311
G1 X107.636 Y99.064 E10.69159
G1 X109.807 Y99.064 E10.96449
G1 X109.807 Y101.664 E11.29122
G1 X114.307 Y101.664 E11.85671
G1 X114.307 Y118.336 E13.95173
G1 X109.957 Y118.336 E14.49837
G1 X110.465 Y118.993 F9000.000
G1 X110.465 Y121.593 E14.82509 F600.000
G1 X106.979 Y121.593 E15.26314
G1 X106.979 Y98.407 E18.17676
G1 X110.465 Y98.407 E18.61480
G1 X110.465 Y101.007 E18.94153
G1 X114.965 Y101.007 E19.50701
G1 X114.965 Y118.993 E21.76718
G1 X110.615 Y118.993 E22.31382
G1 X111.122 Y119.650 F9000.000
G1 X111.122 Y122.250 E22.64054 F600.000
G1 X99.610 Y122.250 E24.08716
G1 X99.610 Y120.950 E24.25053
G1 X106.322 Y120.950 E25.09396
G1 X106.322 Y99.050 E27.84600
G1 X99.610 Y99.050 E28.68943
G1 X99.610 Y97.750 E28.85280
G1 X111.122 Y97.750 E30.29942
G1 X111.122 Y100.350 E30.62614
G1 X120.027 Y100.350 E31.74518
G1 X120.027 Y101.650 E31.90854
G1 X115.622 Y101.650 E32.46209
G1 X115.622 Y118.350 E34.56067
G1 X120.027 Y118.350 E35.11422
G1 X120.027 Y119.650 E35.27759
G1 X111.272 Y119.650 E36.37777
G1 X110.122 Y119.650 F9000.000
G1 X109.441 Y120.244 F9000.000
G1 X109.115 Y120.570 E36.43723 F600.000
G1 X108.162 Y120.570 E36.56022
G1 X109.441 Y119.290 E36.79360
G1 X109.441 Y118.336 E36.91658
G1 X108.002 Y119.775 E37.17906
G1 X108.002 Y118.822 E37.30204
G1 X113.941 Y112.883 E38.38521
G1 X113.941 Y113.836 E38.50820
G1 X109.808 Y117.970 E39.26202
G1 X110.762 Y117.970 E39.38500
G1 X113.941 Y114.790 E39.96491
G1 X113.941 Y115.744 E40.08789
G1 X111.715 Y117.970 E40.49387
G1 X112.669 Y117.970 E40.61685
G1 X113.941 Y116.697 E40.84891
G1 X113.941 Y117.651 E40.97189
G1 X113.622 Y117.970 E41.03003
G1 X108.002 Y117.868 F9000.000
G1 X113.941 Y111.929 E42.11320 F600.000
G1 X113.941 Y110.975 E42.23619
G1 X108.002 Y116.915 E43.31936
G1 X108.002 Y115.961 E43.44234
G1 X113.941 Y110.022 E44.52552
G1 X113.941 Y109.068 E44.64850
G1 X108.002 Y115.007 E45.73168
G1 X108.002 Y114.054 E45.85466
G1 X113.941 Y108.114 E46.93783
G1 X113.941 Y107.161 E47.06081
G1 X108.002 Y113.100 E48.14399
G1 X108.002 Y112.146 E48.26697
G1 X113.941 Y106.207 E49.35015
G1 X113.941 Y105.254 E49.47313
G1 X108.002 Y111.193 E50.55631
G1 X108.002 Y110.239 E50.67929
G1 X113.941 Y104.300 E51.76246
G1 X113.941 Y103.346 E51.88544
G1 X108.002 Y109.285 E52.96862
G1 X108.002 Y108.332 E53.09160
G1 X113.941 Y102.393 E54.17478
G1 X113.350 Y102.030 E54.26421
G1 X108.002 Y107.378 E55.23954
G1 X108.002 Y106.425 E55.36252
G1 X112.396 Y102.030 E56.16392
G1 X111.443 Y102.030 E56.28690
G1 X108.002 Y105.471 E56.91438
G1 X108.002 Y104.517 E57.03736
G1 X110.489 Y102.030 E57.49092
G1 X109.535 Y102.030 E57.61391
G1 X108.002 Y103.564 E57.89354
G1 X108.002 Y102.610 E58.01652
G1 X109.441 Y101.171 E58.27900
G1 X109.441 Y100.217 E58.40198
G1 X108.002 Y101.656 E58.66445
G1 X108.002 Y100.703 E58.78743
G1 X109.274 Y99.430 E59.01949
G1 X108.321 Y99.430 E59.14247
G1 X108.002 Y99.749 E59.20060
G1 X106.650 Y98.400 F9000.000
G1 X99.938 Y98.400 E60.94256 F600.000
G1 E56.94256 F9000.00000
G92 E0
G1 X115.293 Y101.000 F9000.000
G1 E5.50000 F9000.00000
G1 X119.698 Y101.000 E6.64325 F600.000
G1 E2.64325 F9000.00000
G92 E0
G1 X119.698 Y119.000 F9000.000
G1 E5.50000 F9000.00000
G1 X115.293 Y119.000 E6.64325 F600.000
G1 E2.64325 F9000.00000
G92 E0
G1 X106.650 Y121.600 F9000.000
G1 E5.50000 F9000.00000
G1 X99.938 Y121.600 E7.24196 F600.000
M106 S255
G1 Z0.750 F9000.000
G1 E3.24196 F9000.00000
G92 E0
G1 X109.807 Y118.336 F9000.000
G1 E5.50000 F9000.00000
G1 X109.807 Y120.936 E5.82673 F600.000
G1 X107.636 Y120.936 E6.09963
G1 X107.636 Y99.064 E8.84810
G1 X109.807 Y99.064 E9.12101
G1 X109.807 Y101.664 E9.44773
G1 X114.307 Y101.664 E10.01322
G1 X114.307 Y118.336 E12.10824
G1 X109.957 Y118.336 E12.65488
G1 X110.465 Y118.993 F9000.000
G1 X110.465 Y121.593 E12.98161 F600.000
G1 X106.979 Y121.593 E13.41965
G1 X106.979 Y98.407 E16.33327
G1 X110.465 Y98.407 E16.77131
G1 X110.465 Y101.007 E17.09804
G1 X114.965 Y101.007 E17.66353
G1 X114.965 Y118.993 E19.92369
G1 X110.615 Y118.993 E20.47033
G1 X111.122 Y119.650 F9000.000
G1 X111.122 Y122.250 E20.79706 F600.000
G1 X99.425 Y122.250 E22.26690
G1 X99.425 Y120.950 E22.43026
G1 X106.322 Y120.950 E23.29692
G1 X106.322 Y99.050 E26.04895
G1 X99.425 Y99.050 E26.91561
G1 X99.425 Y97.750 E27.07897
G1 X111.122 Y97.750 E28.54881
G1 X111.122 Y100.350 E28.87554
G1 X120.207 Y100.350 E30.01719
G1 X120.207 Y101.650 E30.18055
G1 X115.622 Y101.650 E30.75672
G1 X115.622 Y118.350 E32.85531
G1 X120.207 Y118.350 E33.43147
G1 X120.207 Y119.650 E33.59484
G1 X111.272 Y119.650 E34.71764
G1 X110.122 Y119.650 F9000.000
G1 X108.321 Y120.570 F9000.000
G1 X108.002 Y120.251 E34.77578 F600.000
G1 X108.002 Y119.297 E34.89876
G1 X109.274 Y120.570 E35.13081
G1 X109.441 Y119.783 E35.23454
G1 X108.002 Y118.344 E35.49701
G1 X108.002 Y117.390 E35.61999
G1 X109.441 Y118.829 E35.88247
G1 X109.535 Y117.970 E35.99398
G1 X108.002 Y116.436 E36.27361
G1 X108.002 Y115.483 E36.39659
G1 X110.489 Y117.970 E36.85015
G1 X111.443 Y117.970 E36.97313
G1 X108.002 Y114.529 E37.60062
G1 X108.002 Y113.575 E37.72360
G1 X112.396 Y117.970 E38.52500
G1 X113.350 Y117.970 E38.64798
G1 X108.002 Y112.622 E39.62331
G1 X108.002 Y111.668 E39.74629
G1 X113.941 Y117.607 E40.82946
G1 X113.941 Y116.654 E40.95245
G1 X108.002 Y110.715 E42.03562
G1 X108.002 Y109.761 E42.15860
G1 X113.941 Y115.700 E43.24178
G1 X113.941 Y114.746 E43.36476
G1 X108.002 Y108.807 E44.44794
G1 X108.002 Y107.854 E44.57092
G1 X113.941 Y113.793 E45.65409
G1 X113.941 Y112.839 E45.77707
G1 X108.002 Y106.900 E46.86025
G1 X108.002 Y105.946 E46.98323
G1 X113.941 Y111.886 E48.06641
G1 X113.941 Y110.932 E48.18939
G1 X108.002 Y104.993 E49.27257
G1 X108.002 Y104.039 E49.39555
G1 X113.941 Y109.978 E50.47872
G1 X113.941 Y109.025 E50.60170
G1 X108.002 Y103.085 E51.68488
G1 X108.002 Y102.132 E51.80786
G1 X113.941 Y108.071 E52.89104
G1 X113.941 Y107.117 E53.01402
G1 X108.002 Y101.178 E54.09719
G1 X109.441 Y101.664 F9000.000
G1 X108.002 Y100.225 E54.35967 F600.000
G1 X108.162 Y99.430 E54.46413
G1 X109.441 Y100.710 E54.69751
G1 X109.441 Y99.756 E54.82049
G1 X109.115 Y99.430 E54.87996
G1 X109.808 Y102.030 F9000.000
G1 X113.941 Y106.164 E55.63378 F600.000
G1 X113.941 Y105.210 E55.75676
G1 X110.762 Y102.030 E56.33666
G1 X111.715 Y102.030 E56.45965
G1 X113.941 Y104.256 E56.86563
G1 X113.941 Y103.303 E56.98861
G1 X112.669 Y102.030 E57.22067
G1 X113.622 Y102.030 E57.34365
G1 X113.941 Y102.349 E57.40179
G1 X115.293 Y101.000 F9000.000
G1 X119.878 Y101.000 E58.59175 F600.000
G1 E54.59175 F9000.00000
G92 E0
G1 X106.650 Y98.400 F9000.000
G1 E5.50000 F9000.00000
G1 X99.754 Y98.400 E7.28992 F600.000
G1 E3.28992 F9000.00000
G92 E0
G1 X99.754 Y121.600 F9000.000
G1 E5.50000 F9000.00000
G1 X106.650 Y121.600 E7.28992 F600.000
G1 E3.28992 F9000.00000
G92 E0
G1 X115.293 Y119.000 F9000.000
G1 E5.50000 F9000.00000
G1 X119.878 Y119.000 E6.68997 F600.000
G1 Z0.950 F9000.000
G1 X109.807 Y118.336 F9000.000
G1 X109.807 Y120.936 E7.01669 F600.000
G1 X107.636 Y120.936 E7.28959
G1 X107.636 Y99.064 E10.03807
G1 X109.807 Y99.064 E10.31097
G1 X109.807 Y101.664 E10.63770
G1 X114.307 Y101.664 E11.20319
G1 X114.307 Y118.336 E13.29821
G1 X109.957 Y118.336 E13.84485
G1 X110.465 Y118.993 F9000.000
G1 X110.465 Y121.593 E14.17157 F600.000
G1 X106.979 Y121.593 E14.60962
G1 X106.979 Y98.407 E17.52324
G1 X110.465 Y98.407 E17.96128
G1 X110.465 Y101.007 E18.28801
G1 X114.965 Y101.007 E18.85349
G1 X114.965 Y118.993 E21.11366
G1 X110.615 Y118.993 E21.66030
G1 X111.122 Y119.650 F9000.000
G1 X111.122 Y122.250 E21.98702 F600.000
G1 X99.240 Y122.250 E23.48008
G1 X99.240 Y120.950 E23.64345
G1 X106.322 Y120.950 E24.53332
G1 X106.322 Y99.050 E27.28536
G1 X99.240 Y99.050 E28.17523
G1 X99.240 Y97.750 E28.33860
G1 X111.122 Y97.750 E29.83166
G1 X111.122 Y100.350 E30.15838
G1 X120.387 Y100.350 E31.32266
G1 X120.387 Y101.650 E31.48602
G1 X115.622 Y101.650 E32.08481
G1 X115.622 Y118.350 E34.18339
G1 X120.387 Y118.350 E34.78218
G1 X120.387 Y119.650 E34.94554
G1 X111.272 Y119.650 E36.09097
G1 X110.122 Y119.650 F9000.000
G1 X109.441 Y120.244 F9000.000
G1 X109.115 Y120.570 E36.15043 F600.000
G1 X108.162 Y120.570 E36.27341
G1 X109.441 Y119.290 E36.50679
G1 X109.441 Y118.336 E36.62978
G1 X108.002 Y119.775 E36.89225
G1 X108.002 Y118.822 E37.01523
G1 X113.941 Y112.883 E38.09841
G1 X113.941 Y113.836 E38.22139
G1 X109.808 Y117.970 E38.97521
G1 X110.762 Y117.970 E39.09820
G1 X113.941 Y114.790 E39.67810
G1 X113.941 Y115.744 E39.80108
G1 X111.715 Y117.970 E40.20706
G1 X112.669 Y117.970 E40.33004
G1 X113.941 Y116.697 E40.56210
G1 X113.941 Y117.651 E40.68508
G1 X113.622 Y117.970 E40.74322
G1 X108.002 Y117.868 F9000.000
G1 X113.941 Y111.929 E41.82640 F600.000
G1 X113.941 Y110.975 E41.94938
G1 X108.002 Y116.915 E43.03256
G1 X108.002 Y115.961 E43.15554
G1 X113.941 Y110.022 E44.23871
G1 X113.941 Y109.068 E44.36169
G1 X108.002 Y115.007 E45.44487
G1 X108.002 Y114.054 E45.56785
G1 X113.941 Y108.114 E46.65103
G1 X113.941 Y107.161 E46.77401
G1 X108.002 Y113.100 E47.85718
G1 X108.002 Y112.146 E47.98017
G1 X113.941 Y106.207 E49.06334
G1 X113.941 Y105.254 E49.18632
G1 X108.002 Y111.193 E50.26950
G1 X108.002 Y110.239 E50.39248
G1 X113.941 Y104.300 E51.47566
G1 X113.941 Y103.346 E51.59864
G1 X108.002 Y109.285 E52.68181
G1 X108.002 Y108.332 E52.80480
G1 X113.941 Y102.393 E53.88797
G1 X113.350 Y102.030 E53.97741
G1 X108.002 Y107.378 E54.95273
G1 X108.002 Y106.425 E55.07571
G1 X112.396 Y102.030 E55.87712
G1 X111.443 Y102.030 E56.00010
G1 X108.002 Y105.471 E56.62758
G1 X108.002 Y104.517 E56.75056
G1 X110.489 Y102.030 E57.20412
G1 X109.535 Y102.030 E57.32710
G1 X108.002 Y103.564 E57.60674
G1 X108.002 Y102.610 E57.72972
G1 X109.441 Y101.171 E57.99219
G1 X109.441 Y100.217 E58.11517
G1 X108.002 Y101.656 E58.37765
G1 X108.002 Y100.703 E58.50063
G1 X109.274 Y99.430 E58.73268
G1 X108.321 Y99.430 E58.85566
G1 X108.002 Y99.749 E58.91380
G1 X106.650 Y98.400 F9000.000
