; generated by Slic3r 1.2.9 on 2020-08-30 at 12:11:50

; external perimeters extrusion width = 0.70mm
; perimeters extrusion width = 0.70mm
; infill extrusion width = 0.70mm
; solid infill extrusion width = 0.70mm
; top infill extrusion width = 0.70mm

M302 S140;Enable extrusion at min 140 (Marlin)
G28 ; home all axes
G1 Z5 F5000 ; lift nozzle
M109 S190 ; wait for temperature to be reached
G92 E0;Set Extruder pos to 0
G1 E100.000 F1500.000; Extrude a couple of mm to get extruder ready


G21 ; set units to millimeters
G90 ; use absolute coordinates
M82 ; use absolute distances for extrusion
G92 E0
G1 Z0.350 F9000.000
G1 E-7.00000 F9000.00000
G92 E0
G1 X97.138 Y94.339 F9000.000
G1 E8.50000 F9000.00000
G1 X99.514 Y93.525 E8.69182 F600.000
G1 X111.472 Y93.525 E9.60516
G1 X112.586 Y93.689 E9.69120
G1 X121.244 Y96.289 E10.38164 F600.000
G1 X122.762 Y97.157 E10.51525
G1 X123.744 Y98.605 E10.64885
G1 X124.004 Y100.000 E10.75724
G1 X124.004 Y120.000 E12.28486
G1 X123.609 Y121.704 E12.41846
G1 X122.505 Y123.061 E12.55207
G1 X121.244 Y123.711 E12.66045
G1 X112.586 Y126.311 E13.35090
G1 X111.472 Y126.475 E13.43693
G1 X99.514 Y126.475 E14.35028
G1 X97.810 Y126.080 E14.48388
G1 X96.453 Y124.976 E14.61749
G1 X95.639 Y122.600 E14.80931
G1 X95.639 Y97.400 E16.73410
G1 X96.034 Y95.696 E16.86771
G1 X97.062 Y94.432 E16.99215
G1 X97.632 Y94.796 F9000.000
G1 X97.744 Y94.674 E17.00476 F600.000
G1 X99.514 Y94.150 E17.14575
G1 X111.472 Y94.150 E18.05910
G1 X112.406 Y94.288 E18.13126
G1 X121.064 Y96.888 E18.82170 F600.000
G1 X122.436 Y97.711 E18.94391
G1 X123.249 Y99.089 E19.06611
G1 X123.379 Y100.000 E19.13641
G1 X123.379 Y120.000 E20.66403
G1 X122.985 Y121.551 E20.78623
G1 X121.899 Y122.726 E20.90844
G1 X121.064 Y123.112 E20.97874
G1 X112.406 Y125.712 E21.66918
G1 X111.472 Y125.850 E21.74135
G1 X99.514 Y125.850 E22.65469
G1 X97.963 Y125.456 E22.77690
G1 X96.788 Y124.370 E22.89910
G1 X96.264 Y122.600 E23.04009
G1 X96.264 Y97.400 E24.96489
G1 X96.658 Y95.849 E25.08709
G1 X97.550 Y94.884 E25.18752
G1 X97.281 Y96.019 F9000.000
G1 X98.341 Y95.052 E25.29714 F600.000
G1 X99.514 Y94.775 E25.38917
G1 X111.472 Y94.775 E26.30252
G1 X112.227 Y94.886 E26.36080
G1 X120.884 Y97.486 E27.05125
G1 X122.093 Y98.259 E27.16087
G1 X122.754 Y100.000 E27.30310
G1 X122.754 Y120.000 E28.83072
G1 X122.362 Y121.381 E28.94035
G1 X120.884 Y122.514 E29.08258
G1 X112.227 Y125.114 E29.77302
G1 X111.472 Y125.225 E29.83131
G1 X99.514 Y125.225 E30.74465
G1 X98.133 Y124.833 E30.85428
G1 X97.165 Y123.773 E30.96390
G1 X96.889 Y122.600 E31.05593
G1 X96.889 Y97.400 E32.98073
G1 X97.249 Y96.135 E33.08119
G1 E26.08119 F9000.00000
G92 E0
G1 X109.872 Y118.400 F9000.000
G1 E8.50000 F9000.00000
G1 X109.872 Y121.000 E8.69859 F600.000
G1 X107.571 Y121.000 E8.87430
G1 X107.571 Y99.000 E10.55471
G1 X109.872 Y99.000 E10.73042
G1 X109.872 Y101.600 E10.92901
G1 X114.372 Y101.600 E11.27273
G1 X114.372 Y118.400 E12.55596
G1 X109.992 Y118.400 E12.89051
G1 X110.497 Y119.025 F9000.000
G1 X110.497 Y121.625 E13.08910 F600.000
G1 X106.947 Y121.625 E13.36027
G1 X106.947 Y98.375 E15.13614
G1 X110.497 Y98.375 E15.40731
G1 X110.497 Y100.975 E15.60590
G1 X114.997 Y100.975 E15.94961
G1 X114.997 Y119.025 E17.32830
G1 X110.617 Y119.025 E17.66285
G1 X111.122 Y119.650 F9000.000
G1 X111.122 Y122.250 E17.86144 F600.000
G1 X99.864 Y122.250 E18.72132
G1 X99.864 Y120.950 E18.82061
G1 X106.322 Y120.950 E19.31386
G1 X106.322 Y99.050 E20.98660
G1 X99.864 Y99.050 E21.47986
G1 X99.864 Y97.750 E21.57915
G1 X111.122 Y97.750 E22.43903
G1 X111.122 Y100.350 E22.63762
G1 X119.779 Y100.350 E23.29889
G1 X119.779 Y101.650 E23.39818
G1 X115.622 Y101.650 E23.71574
G1 X115.622 Y118.350 E24.99130
G1 X119.779 Y118.350 E25.30885
G1 X119.779 Y119.650 E25.40814
G1 X111.242 Y119.650 E26.06025
G1 X110.322 Y119.650 F9000.000
G1 X108.224 Y120.653 F9000.000
G1 X107.919 Y120.348 E26.09367 F600.000
G1 X107.919 Y119.451 E26.16311
G1 X109.120 Y120.653 E26.29475
G1 X109.525 Y120.161 E26.34408
G1 X107.919 Y118.555 E26.52001
G1 X107.919 Y117.659 E26.58946
G1 X109.525 Y119.265 E26.76539
G1 X109.525 Y118.368 E26.83483
G1 X107.919 Y116.762 E27.01076
G1 X107.919 Y115.866 E27.08020
G1 X110.106 Y118.053 E27.31979
G1 X111.002 Y118.053 E27.38923
G1 X107.919 Y114.970 E27.72703
G1 X107.919 Y114.073 E27.79647
G1 X111.898 Y118.053 E28.23247
G1 X112.795 Y118.053 E28.30192
G1 X107.919 Y113.177 E28.83612
G1 X107.919 Y112.281 E28.90556
G1 X113.691 Y118.053 E29.53797
G1 X114.025 Y117.490 E29.58866
G1 X107.919 Y111.384 E30.25761
G1 X107.919 Y110.488 E30.32706
G1 X114.025 Y116.594 E30.99601
G1 X114.025 Y115.697 E31.06545
G1 X107.919 Y109.592 E31.73441
G1 X107.919 Y108.695 E31.80385
G1 X114.025 Y114.801 E32.47281
G1 X114.025 Y113.905 E32.54225
G1 X107.919 Y107.799 E33.21121
G1 X107.919 Y106.903 E33.28065
G1 X114.025 Y113.008 E33.94960
G1 X114.025 Y112.112 E34.01905
G1 X107.919 Y106.006 E34.68800
G1 X107.919 Y105.110 E34.75744
G1 X114.025 Y111.216 E35.42640
G1 X114.025 Y110.319 E35.49584
G1 X107.919 Y104.214 E36.16480
G1 X107.919 Y103.317 E36.23424
G1 X114.025 Y109.423 E36.90320
G1 X114.025 Y108.527 E36.97264
G1 X107.919 Y102.421 E37.64159
G1 X107.919 Y101.525 E37.71104
G1 X114.025 Y107.630 E38.37999
G1 X114.025 Y106.734 E38.44943
G1 X107.919 Y100.628 E39.11839
G1 X109.525 Y100.441 F9000.000
G1 X108.430 Y99.347 E39.23827 F600.000
G1 X107.919 Y99.732 E39.28786
G1 X109.525 Y101.338 E39.46379
G1 X110.134 Y101.947 F9000.000
G1 X114.025 Y105.838 E39.89004 F600.000
G1 X114.025 Y104.941 E39.95948
G1 X111.030 Y101.947 E40.28752
G1 X111.927 Y101.947 E40.35697
G1 X114.025 Y104.045 E40.58680
G1 X114.025 Y103.149 E40.65625
G1 X112.823 Y101.947 E40.78788
G1 X113.719 Y101.947 E40.85732
G1 X114.025 Y102.252 E40.89075
G1 X115.309 Y101.000 F9000.000
G1 X119.467 Y101.000 E41.56402 F600.000
G1 E34.56402 F9000.00000
G92 E0
G1 X106.634 Y98.400 F9000.000
G1 E8.50000 F9000.00000
G1 X100.176 Y98.400 E9.54579 F600.000
G1 E2.54579 F9000.00000
G92 E0
G1 X100.176 Y121.600 F9000.000
G1 E8.50000 F9000.00000
G1 X106.634 Y121.600 E9.54579 F600.000
G1 E2.54579 F9000.00000
G92 E0
G1 X115.309 Y119.000 F9000.000
G1 E8.50000 F9000.00000
G1 X119.467 Y119.000 E9.17327 F600.000
G1 Z0.550 F9000.000
G1 X109.807 Y118.336 F9000.000
G1 X109.807 Y120.936 E9.29260 F600.000
G1 X107.636 Y120.936 E9.39227
G1 X107.636 Y99.064 E10.39606
G1 X109.807 Y99.064 E10.49573
G1 X109.807 Y101.664 E10.61505
G1 X114.307 Y101.664 E10.82158
G1 X114.307 Y118.336 E11.58672
G1 X109.927 Y118.336 E11.78774
G1 X110.465 Y118.993 F9000.000
G1 X110.465 Y121.593 E11.90706 F600.000
G1 X106.979 Y121.593 E12.06704
G1 X106.979 Y98.407 E13.13115
G1 X110.465 Y98.407 E13.29113
G1 X110.465 Y101.007 E13.41046
G1 X114.965 Y101.007 E13.61698
G1 X114.965 Y118.993 E14.44243
G1 X110.585 Y118.993 E14.64345
G1 X111.122 Y119.650 F9000.000
G1 X111.122 Y122.250 E14.76278 F600.000
G1 X99.610 Y122.250 E15.29111
G1 X99.610 Y120.950 E15.35077
G1 X106.322 Y120.950 E15.65881
G1 X106.322 Y99.050 E16.66390
G1 X99.610 Y99.050 E16.97194
G1 X99.610 Y97.750 E17.03160
G1 X111.122 Y97.750 E17.55993
G1 X111.122 Y100.350 E17.67926
G1 X120.027 Y100.350 E18.08795
G1 X120.027 Y101.650 E18.14761
G1 X115.622 Y101.650 E18.34978
G1 X115.622 Y118.350 E19.11622
G1 X120.027 Y118.350 E19.31838
G1 X120.027 Y119.650 E19.37805
G1 X111.242 Y119.650 E19.78123
G1 X110.322 Y119.650 F9000.000
G1 X109.441 Y120.244 F9000.000
G1 X109.115 Y120.570 E19.80295 F600.000
G1 X108.162 Y120.570 E19.84786
G1 X109.441 Y119.290 E19.93310
G1 X109.441 Y118.336 E19.97801
G1 X108.002 Y119.775 E20.07387
G1 X108.002 Y118.822 E20.11879
G1 X113.941 Y112.883 E20.51438
G1 X113.941 Y113.836 E20.55930
G1 X109.808 Y117.970 E20.83461
G1 X110.762 Y117.970 E20.87952
G1 X113.941 Y114.790 E21.09131
G1 X113.941 Y115.744 E21.13623
G1 X111.715 Y117.970 E21.28450
G1 X112.669 Y117.970 E21.32941
G1 X113.941 Y116.697 E21.41417
G1 X113.941 Y117.651 E21.45908
G1 X113.622 Y117.970 E21.48031
G1 X108.002 Y117.868 F9000.000
G1 X113.941 Y111.929 E21.87591 F600.000
G1 X113.941 Y110.975 E21.92082
G1 X108.002 Y116.915 E22.31642
G1 X108.002 Y115.961 E22.36133
G1 X113.941 Y110.022 E22.75693
G1 X113.941 Y109.068 E22.80184
G1 X108.002 Y115.007 E23.19744
G1 X108.002 Y114.054 E23.24235
G1 X113.941 Y108.114 E23.63795
G1 X113.941 Y107.161 E23.68286
G1 X108.002 Y113.100 E24.07846
G1 X108.002 Y112.146 E24.12337
G1 X113.941 Y106.207 E24.51897
G1 X113.941 Y105.254 E24.56388
G1 X108.002 Y111.193 E24.95948
G1 X108.002 Y110.239 E25.00439
G1 X113.941 Y104.300 E25.39999
G1 X113.941 Y103.346 E25.44490
G1 X108.002 Y109.285 E25.84050
G1 X108.002 Y108.332 E25.88541
G1 X113.941 Y102.393 E26.28101
G1 X113.350 Y102.030 E26.31367
G1 X108.002 Y107.378 E26.66987
G1 X108.002 Y106.425 E26.71479
G1 X112.396 Y102.030 E27.00748
G1 X111.443 Y102.030 E27.05239
G1 X108.002 Y105.471 E27.28156
G1 X108.002 Y104.517 E27.32647
G1 X110.489 Y102.030 E27.49212
G1 X109.535 Y102.030 E27.53704
G1 X108.002 Y103.564 E27.63916
G1 X108.002 Y102.610 E27.68408
G1 X109.441 Y101.171 E27.77994
G1 X109.441 Y100.217 E27.82485
G1 X108.002 Y101.656 E27.92071
G1 X108.002 Y100.703 E27.96563
G1 X109.274 Y99.430 E28.05038
G1 X108.321 Y99.430 E28.09529
G1 X108.002 Y99.749 E28.11653
G1 X106.650 Y98.400 F9000.000
G1 X99.938 Y98.400 E28.75272 F600.000
G1 E21.75272 F9000.00000
G92 E0
G1 X115.293 Y101.000 F9000.000
G1 E8.50000 F9000.00000
G1 X119.698 Y101.000 E8.91754 F600.000
G1 E1.91754 F9000.00000
G92 E0
G1 X119.698 Y119.000 F9000.000
G1 E8.50000 F9000.00000
G1 X115.293 Y119.000 E8.91754 F600.000
G1 E1.91754 F9000.00000
G92 E0
G1 X106.650 Y121.600 F9000.000
G1 E8.50000 F9000.00000
G1 X99.938 Y121.600 E9.13619 F600.000
M106 S255
G1 Z0.750 F9000.000
G1 E2.13619 F9000.00000
G92 E0
G1 X109.807 Y118.336 F9000.000
G1 E8.50000 F9000.00000
G1 X109.807 Y120.936 E8.61933 F600.000
G1 X107.636 Y120.936 E8.71899
G1 X107.636 Y99.064 E9.72279
G1 X109.807 Y99.064 E9.82245
G1 X109.807 Y101.664 E9.94178
G1 X114.307 Y101.664 E10.14831
G1 X114.307 Y118.336 E10.91345
G1 X109.927 Y118.336 E11.11446
G1 X110.465 Y118.993 F9000.000
G1 X110.465 Y121.593 E11.23379 F600.000
G1 X106.979 Y121.593 E11.39377
G1 X106.979 Y98.407 E12.45788
G1 X110.465 Y98.407 E12.61786
G1 X110.465 Y101.007 E12.73718
G1 X114.965 Y101.007 E12.94371
G1 X114.965 Y118.993 E13.76916
G1 X110.585 Y118.993 E13.97018
G1 X111.122 Y119.650 F9000.000
G1 X111.122 Y122.250 E14.08950 F600.000
G1 X99.425 Y122.250 E14.62632
G1 X99.425 Y120.950 E14.68598
G1 X106.322 Y120.950 E15.00250
G1 X106.322 Y99.050 E16.00759
G1 X99.425 Y99.050 E16.32411
G1 X99.425 Y97.750 E16.38377
G1 X111.122 Y97.750 E16.92058
G1 X111.122 Y100.350 E17.03991
G1 X120.207 Y100.350 E17.45686
G1 X120.207 Y101.650 E17.51652
G1 X115.622 Y101.650 E17.72695
G1 X115.622 Y118.350 E18.49339
G1 X120.207 Y118.350 E18.70381
G1 X120.207 Y119.650 E18.76348
G1 X111.242 Y119.650 E19.17492
G1 X110.322 Y119.650 F9000.000
G1 X108.321 Y120.570 F9000.000
G1 X108.002 Y120.251 E19.19615 F600.000
G1 X108.002 Y119.297 E19.24107
G1 X109.274 Y120.570 E19.32582
G1 X109.441 Y119.783 E19.36370
G1 X108.002 Y118.344 E19.45956
G1 X108.002 Y117.390 E19.50448
G1 X109.441 Y118.829 E19.60034
G1 X109.535 Y117.970 E19.64106
G1 X108.002 Y116.436 E19.74319
G1 X108.002 Y115.483 E19.78810
G1 X110.489 Y117.970 E19.95375
G1 X111.443 Y117.970 E19.99867
G1 X108.002 Y114.529 E20.22783
G1 X108.002 Y113.575 E20.27275
G1 X112.396 Y117.970 E20.56544
G1 X113.350 Y117.970 E20.61035
G1 X108.002 Y112.622 E20.96656
G1 X108.002 Y111.668 E21.01147
G1 X113.941 Y117.607 E21.40707
G1 X113.941 Y116.654 E21.45198
G1 X108.002 Y110.715 E21.84757
G1 X108.002 Y109.761 E21.89249
G1 X113.941 Y115.700 E22.28808
G1 X113.941 Y114.746 E22.33300
G1 X108.002 Y108.807 E22.72859
G1 X108.002 Y107.854 E22.77351
G1 X113.941 Y113.793 E23.16910
G1 X113.941 Y112.839 E23.21402
G1 X108.002 Y106.900 E23.60961
G1 X108.002 Y105.946 E23.65453
G1 X113.941 Y111.886 E24.05012
G1 X113.941 Y110.932 E24.09504
G1 X108.002 Y104.993 E24.49063
G1 X108.002 Y104.039 E24.53555
G1 X113.941 Y109.978 E24.93114
G1 X113.941 Y109.025 E24.97606
G1 X108.002 Y103.085 E25.37165
G1 X108.002 Y102.132 E25.41657
G1 X113.941 Y108.071 E25.81216
G1 X113.941 Y107.117 E25.85708
G1 X108.002 Y101.178 E26.25267
G1 X109.441 Y101.664 F9000.000
G1 X108.002 Y100.225 E26.34853 F600.000
G1 X108.162 Y99.430 E26.38668
G1 X109.441 Y100.710 E26.47192
G1 X109.441 Y99.756 E26.51683
G1 X109.115 Y99.430 E26.53855
G1 X109.808 Y102.030 F9000.000
G1 X113.941 Y106.164 E26.81386 F600.000
G1 X113.941 Y105.210 E26.85877
G1 X110.762 Y102.030 E27.07056
G1 X111.715 Y102.030 E27.11548
G1 X113.941 Y104.256 E27.26375
G1 X113.941 Y103.303 E27.30867
G1 X112.669 Y102.030 E27.39342
G1 X113.622 Y102.030 E27.43833
G1 X113.941 Y102.349 E27.45957
G1 X115.293 Y101.000 F9000.000
G1 X119.878 Y101.000 E27.89416 F600.000
G1 E20.89416 F9000.00000
G92 E0
G1 X106.650 Y98.400 F9000.000
G1 E8.50000 F9000.00000
G1 X99.754 Y98.400 E9.15371 F600.000
G1 E2.15371 F9000.00000
G92 E0
G1 X99.754 Y121.600 F9000.000
G1 E8.50000 F9000.00000
G1 X106.650 Y121.600 E9.15371 F600.000
G1 E2.15371 F9000.00000
G92 E0
G1 X115.293 Y119.000 F9000.000
G1 E8.50000 F9000.00000
G1 X119.878 Y119.000 E8.93460 F600.000
G1 Z0.950 F9000.000
G1 X109.807 Y118.336 F9000.000
G1 X109.807 Y120.936 E9.05392 F600.000
G1 X107.636 Y120.936 E9.15359
G1 X107.636 Y99.064 E10.15738
G1 X109.807 Y99.064 E10.25705
G1 X109.807 Y101.664 E10.37638
G1 X114.307 Y101.664 E10.58290
G1 X114.307 Y118.336 E11.34804
G1 X109.927 Y118.336 E11.54906
G1 X110.465 Y118.993 F9000.000
G1 X110.465 Y121.593 E11.66839 F600.000
G1 X106.979 Y121.593 E11.82837
G1 X106.979 Y98.407 E12.89247
G1 X110.465 Y98.407 E13.05245
G1 X110.465 Y101.007 E13.17178
G1 X114.965 Y101.007 E13.37830
G1 X114.965 Y118.993 E14.20376
G1 X110.585 Y118.993 E14.40478
G1 X111.122 Y119.650 F9000.000
G1 X111.122 Y122.250 E14.52410 F600.000
G1 X99.240 Y122.250 E15.06939
G1 X99.240 Y120.950 E15.12906
G1 X106.322 Y120.950 E15.45405
G1 X106.322 Y99.050 E16.45915
G1 X99.240 Y99.050 E16.78414
G1 X99.240 Y97.750 E16.84381
G1 X111.122 Y97.750 E17.38910
G1 X111.122 Y100.350 E17.50842
G1 X120.387 Y100.350 E17.93364
G1 X120.387 Y101.650 E17.99330
G1 X115.622 Y101.650 E18.21199
G1 X115.622 Y118.350 E18.97843
G1 X120.387 Y118.350 E19.19711
G1 X120.387 Y119.650 E19.25678
G1 X111.242 Y119.650 E19.67648
G1 X110.322 Y119.650 F9000.000
G1 X109.441 Y120.244 F9000.000
G1 X109.115 Y120.570 E19.69820 F600.000
G1 X108.162 Y120.570 E19.74312
G1 X109.441 Y119.290 E19.82835
G1 X109.441 Y118.336 E19.87327
G1 X108.002 Y119.775 E19.96913
G1 X108.002 Y118.822 E20.01404
G1 X113.941 Y112.883 E20.40964
G1 X113.941 Y113.836 E20.45455
G1 X109.808 Y117.970 E20.72986
G1 X110.762 Y117.970 E20.77478
G1 X113.941 Y114.790 E20.98657
G1 X113.941 Y115.744 E21.03148
G1 X111.715 Y117.970 E21.17975
G1 X112.669 Y117.970 E21.22467
G1 X113.941 Y116.697 E21.30942
G1 X113.941 Y117.651 E21.35434
G1 X113.622 Y117.970 E21.37557
G1 X108.002 Y117.868 F9000.000
G1 X113.941 Y111.929 E21.77116 F600.000
G1 X113.941 Y110.975 E21.81608
G1 X108.002 Y116.915 E22.21167
G1 X108.002 Y115.961 E22.25659
G1 X113.941 Y110.022 E22.65218
G1 X113.941 Y109.068 E22.69710
G1 X108.002 Y115.007 E23.09269
G1 X108.002 Y114.054 E23.13761
G1 X113.941 Y108.114 E23.53320
G1 X113.941 Y107.161 E23.57812
G1 X108.002 Y113.100 E23.97371
G1 X108.002 Y112.146 E24.01863
G1 X113.941 Y106.207 E24.41422
G1 X113.941 Y105.254 E24.45914
G1 X108.002 Y111.193 E24.85473
G1 X108.002 Y110.239 E24.89965
G1 X113.941 Y104.300 E25.29524
G1 X113.941 Y103.346 E25.34015
G1 X108.002 Y109.285 E25.73575
G1 X108.002 Y108.332 E25.78066
G1 X113.941 Y102.393 E26.17626
G1 X113.350 Y102.030 E26.20892
G1 X108.002 Y107.378 E26.56513
G1 X108.002 Y106.425 E26.61004
G1 X112.396 Y102.030 E26.90273
G1 X111.443 Y102.030 E26.94764
G1 X108.002 Y105.471 E27.17681
G1 X108.002 Y104.517 E27.22173
G1 X110.489 Y102.030 E27.38737
G1 X109.535 Y102.030 E27.43229
G1 X108.002 Y103.564 E27.53442
G1 X108.002 Y102.610 E27.57933
G1 X109.441 Y101.171 E27.67519
G1 X109.441 Y100.217 E27.72011
G1 X108.002 Y101.656 E27.81597
G1 X108.002 Y100.703 E27.86088
G1 X109.274 Y99.430 E27.94563
G1 X108.321 Y99.430 E27.99055
G1 X108.002 Y99.749 E28.01178
G1 X106.650 Y98.400 F9000.000
