; generated by Slic3r 1.2.9 on 2020-08-20 at 10:54:57

; external perimeters extrusion width = 0.70mm
; perimeters extrusion width = 0.70mm
; infill extrusion width = 0.70mm
; solid infill extrusion width = 0.70mm
; top infill extrusion width = 0.70mm

M190 S75 ; set bed temperature
M302 S140;Enable extrusion at min 140 (Marlin)
G28 ; home all axes
G1 Z5 F5000 ; lift nozzle
M109 S190 ; wait for temperature to be reached
G92 E0;Set Extruder pos to 0
G1 E100.000 F1500.000; Extrude a couple of mm to get extruder ready


G21 ; set units to millimeters
G90 ; use absolute coordinates
M82 ; use absolute distances for extrusion
G92 E0
G1 Z0.350 F9000.000
G1 E-4.00000 F9000.00000
G92 E0
G1 X97.138 Y94.339 F9000.000
G1 E4.50000 F9000.00000
G1 X99.514 Y93.525 E4.72835 F600.000
G1 X111.472 Y93.525 E5.81567
G1 X112.586 Y93.689 E5.91809
G1 X121.244 Y96.289 E6.74005 F600.000
G1 X122.762 Y97.157 E6.89910
G1 X123.744 Y98.605 E7.05816
G1 X124.004 Y100.000 E7.18719
G1 X124.004 Y120.000 E9.00578
G1 X123.609 Y121.704 E9.16484
G1 X122.505 Y123.061 E9.32389
G1 X121.244 Y123.711 E9.45292
G1 X112.586 Y126.311 E10.27488
G1 X111.472 Y126.475 E10.37730
G1 X99.514 Y126.475 E11.46462
G1 X97.810 Y126.080 E11.62367
G1 X96.453 Y124.976 E11.78273
G1 X95.639 Y122.600 E12.01108
G1 X95.639 Y97.400 E14.30251
G1 X96.034 Y95.696 E14.46156
G1 X97.043 Y94.456 E14.60698
G1 X97.632 Y94.796 F9000.000
G1 X97.744 Y94.674 E14.62199 F600.000
G1 X99.514 Y94.150 E14.78983
G1 X111.472 Y94.150 E15.87715
G1 X112.406 Y94.288 E15.96306
G1 X121.064 Y96.888 E16.78501 F600.000
G1 X122.436 Y97.711 E16.93049
G1 X123.249 Y99.089 E17.07598
G1 X123.379 Y100.000 E17.15967
G1 X123.379 Y120.000 E18.97826
G1 X122.985 Y121.551 E19.12374
G1 X121.899 Y122.726 E19.26922
G1 X121.064 Y123.112 E19.35292
G1 X112.406 Y125.712 E20.17487
G1 X111.472 Y125.850 E20.26078
G1 X99.514 Y125.850 E21.34809
G1 X97.963 Y125.456 E21.49358
G1 X96.788 Y124.370 E21.63906
G1 X96.264 Y122.600 E21.80690
G1 X96.264 Y97.400 E24.09833
G1 X96.658 Y95.849 E24.24381
G1 X97.530 Y94.906 E24.36064
G1 X97.281 Y96.019 F9000.000
G1 X98.341 Y95.052 E24.49114 F600.000
G1 X99.514 Y94.775 E24.60070
G1 X111.472 Y94.775 E25.68802
G1 X112.227 Y94.886 E25.75740
G1 X120.884 Y97.486 E26.57936
G1 X122.093 Y98.259 E26.70987
G1 X122.754 Y100.000 E26.87919
G1 X122.754 Y120.000 E28.69778
G1 X122.362 Y121.381 E28.82829
G1 X120.884 Y122.514 E28.99762
G1 X112.227 Y125.114 E29.81957
G1 X111.472 Y125.225 E29.88896
G1 X99.514 Y125.225 E30.97628
G1 X98.133 Y124.833 E31.10678
G1 X97.165 Y123.773 E31.23729
G1 X96.889 Y122.600 E31.34684
G1 X96.889 Y97.400 E33.63827
G1 X97.240 Y96.164 E33.75513
G1 E29.75513 F9000.00000
G92 E0
G1 X109.872 Y118.400 F9000.000
G1 E4.50000 F9000.00000
G1 X109.872 Y121.000 E4.73642 F600.000
G1 X107.571 Y121.000 E4.94560
G1 X107.571 Y99.000 E6.94609
G1 X109.872 Y99.000 E7.15527
G1 X109.872 Y101.600 E7.39168
G1 X114.372 Y101.600 E7.80086
G1 X114.372 Y118.400 E9.32852
G1 X110.022 Y118.400 E9.72407
G1 X110.497 Y119.025 F9000.000
G1 X110.497 Y121.625 E9.96048 F600.000
G1 X106.947 Y121.625 E10.28330
G1 X106.947 Y98.375 E12.39744
G1 X110.497 Y98.375 E12.72026
G1 X110.497 Y100.975 E12.95667
G1 X114.997 Y100.975 E13.36586
G1 X114.997 Y119.025 E15.00716
G1 X110.647 Y119.025 E15.40270
G1 X111.122 Y119.650 F9000.000
G1 X111.122 Y122.250 E15.63912 F600.000
G1 X99.864 Y122.250 E16.66278
G1 X99.864 Y120.950 E16.78099
G1 X106.322 Y120.950 E17.36819
G1 X106.322 Y99.050 E19.35955
G1 X99.864 Y99.050 E19.94675
G1 X99.864 Y97.750 E20.06496
G1 X111.122 Y97.750 E21.08863
G1 X111.122 Y100.350 E21.32504
G1 X119.779 Y100.350 E22.11227
G1 X119.779 Y101.650 E22.23048
G1 X115.622 Y101.650 E22.60851
G1 X115.622 Y118.350 E24.12704
G1 X119.779 Y118.350 E24.50508
G1 X119.779 Y119.650 E24.62329
G1 X111.272 Y119.650 E25.39687
G1 X110.122 Y119.650 F9000.000
G1 X108.224 Y120.653 F9000.000
G1 X107.919 Y120.348 E25.43666 F600.000
G1 X107.919 Y119.451 E25.51933
G1 X109.120 Y120.653 E25.67604
G1 X109.525 Y120.161 E25.73477
G1 X107.919 Y118.555 E25.94421
G1 X107.919 Y117.659 E26.02688
G1 X109.525 Y119.265 E26.23632
G1 X109.525 Y118.368 E26.31899
G1 X107.919 Y116.762 E26.52844
G1 X107.919 Y115.866 E26.61110
G1 X110.106 Y118.053 E26.89633
G1 X111.002 Y118.053 E26.97900
G1 X107.919 Y114.970 E27.38114
G1 X107.919 Y114.073 E27.46381
G1 X111.898 Y118.053 E27.98286
G1 X112.795 Y118.053 E28.06553
G1 X107.919 Y113.177 E28.70149
G1 X107.919 Y112.281 E28.78415
G1 X113.691 Y118.053 E29.53702
G1 X114.025 Y117.490 E29.59736
G1 X107.919 Y111.384 E30.39374
G1 X107.919 Y110.488 E30.47641
G1 X114.025 Y116.594 E31.27278
G1 X114.025 Y115.697 E31.35545
G1 X107.919 Y109.592 E32.15183
G1 X107.919 Y108.695 E32.23450
G1 X114.025 Y114.801 E33.03087
G1 X114.025 Y113.905 E33.11354
G1 X107.919 Y107.799 E33.90992
G1 X107.919 Y106.903 E33.99259
G1 X114.025 Y113.008 E34.78896
G1 X114.025 Y112.112 E34.87163
G1 X107.919 Y106.006 E35.66801
G1 X107.919 Y105.110 E35.75068
G1 X114.025 Y111.216 E36.54705
G1 X114.025 Y110.319 E36.62972
G1 X107.919 Y104.214 E37.42610
G1 X107.919 Y103.317 E37.50877
G1 X114.025 Y109.423 E38.30515
G1 X114.025 Y108.527 E38.38781
G1 X107.919 Y102.421 E39.18419
G1 X107.919 Y101.525 E39.26686
G1 X114.025 Y107.630 E40.06324
G1 X114.025 Y106.734 E40.14590
G1 X107.919 Y100.628 E40.94228
G1 X109.525 Y100.441 F9000.000
G1 X108.430 Y99.347 E41.08499 F600.000
G1 X107.919 Y99.732 E41.14403
G1 X109.525 Y101.338 E41.35347
G1 X110.134 Y101.947 F9000.000
G1 X114.025 Y105.838 E41.86091 F600.000
G1 X114.025 Y104.941 E41.94358
G1 X111.030 Y101.947 E42.33411
G1 X111.927 Y101.947 E42.41678
G1 X114.025 Y104.045 E42.69039
G1 X114.025 Y103.149 E42.77306
G1 X112.823 Y101.947 E42.92977
G1 X113.719 Y101.947 E43.01244
G1 X114.025 Y102.252 E43.05223
G1 X115.309 Y101.000 F9000.000
G1 X119.467 Y101.000 E43.85375 F600.000
G1 E39.85375 F9000.00000
G92 E0
G1 X106.634 Y98.400 F9000.000
G1 E4.50000 F9000.00000
G1 X100.176 Y98.400 E5.74498 F600.000
G1 E1.74498 F9000.00000
G92 E0
G1 X100.176 Y121.600 F9000.000
G1 E4.50000 F9000.00000
G1 X106.634 Y121.600 E5.74498 F600.000
G1 E1.74498 F9000.00000
G92 E0
G1 X115.309 Y119.000 F9000.000
G1 E4.50000 F9000.00000
G1 X119.467 Y119.000 E5.30152 F600.000
M140 S40 ; wait for bed temperature to be reached
G1 Z0.550 F9000.000
G1 X109.807 Y118.336 F9000.000
G1 X109.807 Y120.936 E5.44357 F600.000
G1 X107.636 Y120.936 E5.56222
G1 X107.636 Y99.064 E6.75721
G1 X109.807 Y99.064 E6.87587
G1 X109.807 Y101.664 E7.01792
G1 X114.307 Y101.664 E7.26379
G1 X114.307 Y118.336 E8.17467
G1 X109.957 Y118.336 E8.41233
G1 X110.465 Y118.993 F9000.000
G1 X110.465 Y121.593 E8.55439 F600.000
G1 X106.979 Y121.593 E8.74484
G1 X106.979 Y98.407 E10.01163
G1 X110.465 Y98.407 E10.20209
G1 X110.465 Y101.007 E10.34414
G1 X114.965 Y101.007 E10.59001
G1 X114.965 Y118.993 E11.57269
G1 X110.615 Y118.993 E11.81036
G1 X111.122 Y119.650 F9000.000
G1 X111.122 Y122.250 E11.95241 F600.000
G1 X99.610 Y122.250 E12.58138
G1 X99.610 Y120.950 E12.65240
G1 X106.322 Y120.950 E13.01911
G1 X106.322 Y99.050 E14.21565
G1 X99.610 Y99.050 E14.58236
G1 X99.610 Y97.750 E14.65339
G1 X111.122 Y97.750 E15.28236
G1 X111.122 Y100.350 E15.42441
G1 X120.027 Y100.350 E15.91095
G1 X120.027 Y101.650 E15.98197
G1 X115.622 Y101.650 E16.22265
G1 X115.622 Y118.350 E17.13508
G1 X120.027 Y118.350 E17.37575
G1 X120.027 Y119.650 E17.44678
G1 X111.272 Y119.650 E17.92512
G1 X110.122 Y119.650 F9000.000
G1 X109.441 Y120.244 F9000.000
G1 X109.115 Y120.570 E17.95097 F600.000
G1 X108.162 Y120.570 E18.00444
G1 X109.441 Y119.290 E18.10591
G1 X109.441 Y118.336 E18.15938
G1 X108.002 Y119.775 E18.27350
G1 X108.002 Y118.822 E18.32697
G1 X113.941 Y112.883 E18.79792
G1 X113.941 Y113.836 E18.85139
G1 X109.808 Y117.970 E19.17914
G1 X110.762 Y117.970 E19.23261
G1 X113.941 Y114.790 E19.48474
G1 X113.941 Y115.744 E19.53821
G1 X111.715 Y117.970 E19.71473
G1 X112.669 Y117.970 E19.76820
G1 X113.941 Y116.697 E19.86909
G1 X113.941 Y117.651 E19.92256
G1 X113.622 Y117.970 E19.94784
G1 X108.002 Y117.868 F9000.000
G1 X113.941 Y111.929 E20.41878 F600.000
G1 X113.941 Y110.975 E20.47225
G1 X108.002 Y116.915 E20.94320
G1 X108.002 Y115.961 E20.99667
G1 X113.941 Y110.022 E21.46762
G1 X113.941 Y109.068 E21.52109
G1 X108.002 Y115.007 E21.99203
G1 X108.002 Y114.054 E22.04550
G1 X113.941 Y108.114 E22.51645
G1 X113.941 Y107.161 E22.56992
G1 X108.002 Y113.100 E23.04087
G1 X108.002 Y112.146 E23.09434
G1 X113.941 Y106.207 E23.56528
G1 X113.941 Y105.254 E23.61875
G1 X108.002 Y111.193 E24.08970
G1 X108.002 Y110.239 E24.14317
G1 X113.941 Y104.300 E24.61411
G1 X113.941 Y103.346 E24.66758
G1 X108.002 Y109.285 E25.13853
G1 X108.002 Y108.332 E25.19200
G1 X113.941 Y102.393 E25.66295
G1 X113.350 Y102.030 E25.70183
G1 X108.002 Y107.378 E26.12589
G1 X108.002 Y106.425 E26.17936
G1 X112.396 Y102.030 E26.52779
G1 X111.443 Y102.030 E26.58126
G1 X108.002 Y105.471 E26.85408
G1 X108.002 Y104.517 E26.90755
G1 X110.489 Y102.030 E27.10475
G1 X109.535 Y102.030 E27.15822
G1 X108.002 Y103.564 E27.27980
G1 X108.002 Y102.610 E27.33327
G1 X109.441 Y101.171 E27.44739
G1 X109.441 Y100.217 E27.50086
G1 X108.002 Y101.656 E27.61498
G1 X108.002 Y100.703 E27.66845
G1 X109.274 Y99.430 E27.76934
G1 X108.321 Y99.430 E27.82281
G1 X108.002 Y99.749 E27.84809
G1 X106.650 Y98.400 F9000.000
G1 X99.938 Y98.400 E28.60546 F600.000
G1 E24.60546 F9000.00000
G92 E0
G1 X115.293 Y101.000 F9000.000
G1 E4.50000 F9000.00000
G1 X119.698 Y101.000 E4.99707 F600.000
G1 E0.99707 F9000.00000
G92 E0
G1 X119.698 Y119.000 F9000.000
G1 E4.50000 F9000.00000
G1 X115.293 Y119.000 E4.99707 F600.000
G1 E0.99707 F9000.00000
G92 E0
G1 X106.650 Y121.600 F9000.000
G1 E4.50000 F9000.00000
G1 X99.938 Y121.600 E5.25737 F600.000
M106 S255
G1 Z0.750 F9000.000
G1 E1.25737 F9000.00000
G92 E0
G1 X109.807 Y118.336 F9000.000
G1 E4.50000 F9000.00000
G1 X109.807 Y120.936 E4.64205 F600.000
G1 X107.636 Y120.936 E4.76071
G1 X107.636 Y99.064 E5.95570
G1 X109.807 Y99.064 E6.07435
G1 X109.807 Y101.664 E6.21641
G1 X114.307 Y101.664 E6.46227
G1 X114.307 Y118.336 E7.37315
G1 X109.957 Y118.336 E7.61082
G1 X110.465 Y118.993 F9000.000
G1 X110.465 Y121.593 E7.75287 F600.000
G1 X106.979 Y121.593 E7.94333
G1 X106.979 Y98.407 E9.21012
G1 X110.465 Y98.407 E9.40057
G1 X110.465 Y101.007 E9.54263
G1 X114.965 Y101.007 E9.78849
G1 X114.965 Y118.993 E10.77117
G1 X110.615 Y118.993 E11.00884
G1 X111.122 Y119.650 F9000.000
G1 X111.122 Y122.250 E11.15089 F600.000
G1 X99.425 Y122.250 E11.78996
G1 X99.425 Y120.950 E11.86098
G1 X106.322 Y120.950 E12.23779
G1 X106.322 Y99.050 E13.43433
G1 X99.425 Y99.050 E13.81113
G1 X99.425 Y97.750 E13.88216
G1 X111.122 Y97.750 E14.52122
G1 X111.122 Y100.350 E14.66328
G1 X120.207 Y100.350 E15.15965
G1 X120.207 Y101.650 E15.23068
G1 X115.622 Y101.650 E15.48118
G1 X115.622 Y118.350 E16.39361
G1 X120.207 Y118.350 E16.64412
G1 X120.207 Y119.650 E16.71515
G1 X111.272 Y119.650 E17.20332
G1 X110.122 Y119.650 F9000.000
G1 X108.321 Y120.570 F9000.000
G1 X108.002 Y120.251 E17.22860 F600.000
G1 X108.002 Y119.297 E17.28207
G1 X109.274 Y120.570 E17.38296
G1 X109.441 Y119.783 E17.42806
G1 X108.002 Y118.344 E17.54218
G1 X108.002 Y117.390 E17.59565
G1 X109.441 Y118.829 E17.70977
G1 X109.535 Y117.970 E17.75825
G1 X108.002 Y116.436 E17.87983
G1 X108.002 Y115.483 E17.93330
G1 X110.489 Y117.970 E18.13050
G1 X111.443 Y117.970 E18.18397
G1 X108.002 Y114.529 E18.45679
G1 X108.002 Y113.575 E18.51026
G1 X112.396 Y117.970 E18.85870
G1 X113.350 Y117.970 E18.91217
G1 X108.002 Y112.622 E19.33622
G1 X108.002 Y111.668 E19.38969
G1 X113.941 Y117.607 E19.86064
G1 X113.941 Y116.654 E19.91411
G1 X108.002 Y110.715 E20.38505
G1 X108.002 Y109.761 E20.43852
G1 X113.941 Y115.700 E20.90947
G1 X113.941 Y114.746 E20.96294
G1 X108.002 Y108.807 E21.43389
G1 X108.002 Y107.854 E21.48736
G1 X113.941 Y113.793 E21.95830
G1 X113.941 Y112.839 E22.01177
G1 X108.002 Y106.900 E22.48272
G1 X108.002 Y105.946 E22.53619
G1 X113.941 Y111.886 E23.00713
G1 X113.941 Y110.932 E23.06060
G1 X108.002 Y104.993 E23.53155
G1 X108.002 Y104.039 E23.58502
G1 X113.941 Y109.978 E24.05597
G1 X113.941 Y109.025 E24.10944
G1 X108.002 Y103.085 E24.58038
G1 X108.002 Y102.132 E24.63385
G1 X113.941 Y108.071 E25.10480
G1 X113.941 Y107.117 E25.15827
G1 X108.002 Y101.178 E25.62921
G1 X109.441 Y101.664 F9000.000
G1 X108.002 Y100.225 E25.74333 F600.000
G1 X108.162 Y99.430 E25.78875
G1 X109.441 Y100.710 E25.89022
G1 X109.441 Y99.756 E25.94369
G1 X109.115 Y99.430 E25.96955
G1 X109.808 Y102.030 F9000.000
G1 X113.941 Y106.164 E26.29730 F600.000
G1 X113.941 Y105.210 E26.35077
G1 X110.762 Y102.030 E26.60290
G1 X111.715 Y102.030 E26.65637
G1 X113.941 Y104.256 E26.83288
G1 X113.941 Y103.303 E26.88635
G1 X112.669 Y102.030 E26.98725
G1 X113.622 Y102.030 E27.04072
G1 X113.941 Y102.349 E27.06599
G1 X115.293 Y101.000 F9000.000
G1 X119.878 Y101.000 E27.58337 F600.000
G1 E23.58337 F9000.00000
G92 E0
G1 X106.650 Y98.400 F9000.000
G1 E4.50000 F9000.00000
G1 X99.754 Y98.400 E5.27822 F600.000
G1 E1.27822 F9000.00000
G92 E0
G1 X99.754 Y121.600 F9000.000
G1 E4.50000 F9000.00000
G1 X106.650 Y121.600 E5.27822 F600.000
G1 E1.27822 F9000.00000
G92 E0
G1 X115.293 Y119.000 F9000.000
G1 E4.50000 F9000.00000
G1 X119.878 Y119.000 E5.01738 F600.000
G1 Z0.950 F9000.000
G1 X109.807 Y118.336 F9000.000
G1 X109.807 Y120.936 E5.15943 F600.000
G1 X107.636 Y120.936 E5.27808
G1 X107.636 Y99.064 E6.47307
G1 X109.807 Y99.064 E6.59173
G1 X109.807 Y101.664 E6.73378
G1 X114.307 Y101.664 E6.97965
G1 X114.307 Y118.336 E7.89053
G1 X109.957 Y118.336 E8.12820
G1 X110.465 Y118.993 F9000.000
G1 X110.465 Y121.593 E8.27025 F600.000
G1 X106.979 Y121.593 E8.46070
G1 X106.979 Y98.407 E9.72749
G1 X110.465 Y98.407 E9.91795
G1 X110.465 Y101.007 E10.06000
G1 X114.965 Y101.007 E10.30587
G1 X114.965 Y118.993 E11.28855
G1 X110.615 Y118.993 E11.52622
G1 X111.122 Y119.650 F9000.000
G1 X111.122 Y122.250 E11.66827 F600.000
G1 X99.240 Y122.250 E12.31743
G1 X99.240 Y120.950 E12.38846
G1 X106.322 Y120.950 E12.77536
G1 X106.322 Y99.050 E13.97189
G1 X99.240 Y99.050 E14.35880
G1 X99.240 Y97.750 E14.42982
G1 X111.122 Y97.750 E15.07898
G1 X111.122 Y100.350 E15.22104
G1 X120.387 Y100.350 E15.72724
G1 X120.387 Y101.650 E15.79827
G1 X115.622 Y101.650 E16.05861
G1 X115.622 Y118.350 E16.97104
G1 X120.387 Y118.350 E17.23138
G1 X120.387 Y119.650 E17.30241
G1 X111.272 Y119.650 E17.80042
G1 X110.122 Y119.650 F9000.000
G1 X109.441 Y120.244 F9000.000
G1 X109.115 Y120.570 E17.82627 F600.000
G1 X108.162 Y120.570 E17.87974
G1 X109.441 Y119.290 E17.98122
G1 X109.441 Y118.336 E18.03469
G1 X108.002 Y119.775 E18.14880
G1 X108.002 Y118.822 E18.20227
G1 X113.941 Y112.883 E18.67322
G1 X113.941 Y113.836 E18.72669
G1 X109.808 Y117.970 E19.05444
G1 X110.762 Y117.970 E19.10791
G1 X113.941 Y114.790 E19.36004
G1 X113.941 Y115.744 E19.41351
G1 X111.715 Y117.970 E19.59003
G1 X112.669 Y117.970 E19.64350
G1 X113.941 Y116.697 E19.74439
G1 X113.941 Y117.651 E19.79786
G1 X113.622 Y117.970 E19.82314
G1 X108.002 Y117.868 F9000.000
G1 X113.941 Y111.929 E20.29409 F600.000
G1 X113.941 Y110.975 E20.34756
G1 X108.002 Y116.915 E20.81850
G1 X108.002 Y115.961 E20.87197
G1 X113.941 Y110.022 E21.34292
G1 X113.941 Y109.068 E21.39639
G1 X108.002 Y115.007 E21.86733
G1 X108.002 Y114.054 E21.92081
G1 X113.941 Y108.114 E22.39175
G1 X113.941 Y107.161 E22.44522
G1 X108.002 Y113.100 E22.91617
G1 X108.002 Y112.146 E22.96964
G1 X113.941 Y106.207 E23.44058
G1 X113.941 Y105.254 E23.49405
G1 X108.002 Y111.193 E23.96500
G1 X108.002 Y110.239 E24.01847
G1 X113.941 Y104.300 E24.48942
G1 X113.941 Y103.346 E24.54289
G1 X108.002 Y109.285 E25.01383
G1 X108.002 Y108.332 E25.06730
G1 X113.941 Y102.393 E25.53825
G1 X113.350 Y102.030 E25.57713
G1 X108.002 Y107.378 E26.00119
G1 X108.002 Y106.425 E26.05466
G1 X112.396 Y102.030 E26.40309
G1 X111.443 Y102.030 E26.45656
G1 X108.002 Y105.471 E26.72938
G1 X108.002 Y104.517 E26.78285
G1 X110.489 Y102.030 E26.98005
G1 X109.535 Y102.030 E27.03352
G1 X108.002 Y103.564 E27.15510
G1 X108.002 Y102.610 E27.20857
G1 X109.441 Y101.171 E27.32269
G1 X109.441 Y100.217 E27.37616
G1 X108.002 Y101.656 E27.49028
G1 X108.002 Y100.703 E27.54375
G1 X109.274 Y99.430 E27.64465
G1 X108.321 Y99.430 E27.69812
G1 X108.002 Y99.749 E27.72339
