; generated by Slic3r 1.2.9 on 2020-08-31 at 10:15:20

; external perimeters extrusion width = 0.70mm
; perimeters extrusion width = 0.70mm
; infill extrusion width = 0.70mm
; solid infill extrusion width = 0.70mm
; top infill extrusion width = 0.70mm

M302 S140;Enable extrusion at min 140 (Marlin)
G28 ; home all axes
G1 Z5 F5000 ; lift nozzle
M109 S190 ; wait for temperature to be reached
G92 E0;Set Extruder pos to 0
G1 E100.000 F1500.000; Extrude a couple of mm to get extruder ready


G21 ; set units to millimeters
G90 ; use absolute coordinates
M82 ; use absolute distances for extrusion
G92 E0
G1 Z0.350 F9000.000
G1 E-7.00000 F9000.00000
G92 E0
G1 X86.814 Y81.739 F9000.000
G1 E8.50000 F9000.00000
G1 X89.189 Y80.925 E8.69182 F600.000
G1 X112.943 Y80.925 E10.50616
G1 X114.067 Y81.092 E10.59293
G1 X131.225 Y86.292 E11.96230 F600.000
G1 X132.741 Y87.164 E12.09591
G1 X133.719 Y88.614 E12.22952
G1 X133.975 Y90.000 E12.33717
G1 X133.975 Y130.000 E15.39240
G1 X133.581 Y131.704 E15.52601
G1 X132.477 Y133.061 E15.65961
G1 X131.225 Y133.708 E15.76726
G1 X114.067 Y138.908 E17.13663
G1 X112.943 Y139.075 E17.22341
G1 X89.189 Y139.075 E19.03775
G1 X87.485 Y138.680 E19.17136
G1 X86.129 Y137.576 E19.30496
G1 X85.315 Y135.200 E19.49678
G1 X85.315 Y84.800 E23.34637
G1 X85.710 Y83.096 E23.47998
G1 X86.738 Y81.832 E23.60442
G1 X87.307 Y82.196 F9000.000
G1 X87.420 Y82.074 E23.61703 F600.000
G1 X89.189 Y81.550 E23.75802
G1 X112.943 Y81.550 E25.57236
G1 X113.886 Y81.690 E25.64514
G1 X131.043 Y86.890 E27.01451 F600.000
G1 X132.413 Y87.717 E27.13672
G1 X133.223 Y89.097 E27.25892
G1 X133.351 Y90.000 E27.32860
G1 X133.351 Y130.000 E30.38384
G1 X132.957 Y131.551 E30.50604
G1 X131.871 Y132.726 E30.62825
G1 X131.043 Y133.110 E30.69793
G1 X113.886 Y138.310 E32.06730
G1 X112.943 Y138.450 E32.14008
G1 X89.189 Y138.450 E33.95442
G1 X87.639 Y138.056 E34.07662
G1 X86.464 Y136.970 E34.19883
G1 X85.940 Y135.200 E34.33982
G1 X85.940 Y84.800 E38.18941
G1 X86.333 Y83.249 E38.31162
G1 X87.226 Y82.284 E38.41204
G1 X86.957 Y83.419 F9000.000
G1 X88.017 Y82.452 E38.52167 F600.000
G1 X89.189 Y82.175 E38.61370
G1 X112.943 Y82.175 E40.42804
G1 X113.705 Y82.288 E40.48682
G1 X130.862 Y87.488 E41.85619
G1 X132.070 Y88.264 E41.96582
G1 X132.726 Y90.000 E42.10758
G1 X132.726 Y130.000 E45.16281
G1 X132.333 Y131.381 E45.27244
G1 X130.862 Y132.512 E45.41420
G1 X113.705 Y137.712 E46.78357
G1 X112.943 Y137.825 E46.84235
G1 X89.189 Y137.825 E48.65670
G1 X87.809 Y137.433 E48.76632
G1 X86.841 Y136.373 E48.87595
G1 X86.565 Y135.200 E48.96797
G1 X86.565 Y84.800 E52.81757
G1 X86.924 Y83.535 E52.91803
G1 E45.91803 F9000.00000
G92 E0
G1 X120.344 Y127.600 F9000.000
G1 E8.50000 F9000.00000
G1 X128.501 Y127.600 E9.12308 F600.000
G1 X128.501 Y128.400 E9.18422
G1 X111.344 Y128.400 E10.49472
G1 X111.344 Y133.600 E10.89190
G1 X90.789 Y133.600 E12.46186
G1 X90.789 Y132.800 E12.52300
G1 X103.543 Y132.800 E13.49715
G1 X103.543 Y87.200 E16.98008
G1 X90.789 Y87.200 E17.95423
G1 X90.789 Y86.400 E18.01538
G1 X111.344 Y86.400 E19.58533
G1 X111.344 Y91.600 E19.98251
G1 X128.501 Y91.600 E21.29302
G1 X128.501 Y92.400 E21.35416
G1 X120.344 Y92.400 E21.97723
G1 X120.344 Y127.480 E24.65664
G1 X120.968 Y126.975 F9000.000
G1 X129.126 Y126.975 E25.27972 F600.000
G1 X129.126 Y129.025 E25.43632
G1 X111.968 Y129.025 E26.74682
G1 X111.968 Y134.225 E27.14400
G1 X90.164 Y134.225 E28.80942
G1 X90.164 Y132.175 E28.96602
G1 X102.918 Y132.175 E29.94017
G1 X102.918 Y87.825 E33.32764
G1 X90.164 Y87.825 E34.30179
G1 X90.164 Y85.775 E34.45839
G1 X111.968 Y85.775 E36.12381
G1 X111.968 Y90.975 E36.52099
G1 X129.126 Y90.975 E37.83149
G1 X129.126 Y93.025 E37.98809
G1 X120.968 Y93.025 E38.61117
G1 X120.968 Y126.855 E41.19511
G1 X121.593 Y126.350 F9000.000
G1 X129.751 Y126.350 E41.81819 F600.000
G1 X129.751 Y129.650 E42.07025
G1 X112.593 Y129.650 E43.38075
G1 X112.593 Y134.850 E43.77793
G1 X89.539 Y134.850 E45.53881
G1 X89.539 Y131.550 E45.79087
G1 X102.293 Y131.550 E46.76502
G1 X102.293 Y88.450 E50.05703
G1 X89.539 Y88.450 E51.03119
G1 X89.539 Y85.150 E51.28324
G1 X112.593 Y85.150 E53.04412
G1 X112.593 Y90.350 E53.44130
G1 X129.751 Y90.350 E54.75181
G1 X129.751 Y93.650 E55.00386
G1 X121.593 Y93.650 E55.62694
G1 X121.593 Y126.230 E58.11543
G1 X121.593 Y127.150 F9000.000
G1 X120.031 Y128.000 F9000.000
G1 X128.189 Y128.000 E58.73850 F600.000
G1 X119.958 Y127.303 F9000.000
G1 X103.890 Y111.235 E60.48977 F600.000
G1 X103.890 Y110.343 E60.55850
G1 X119.996 Y126.449 E62.31390
G1 X119.996 Y125.557 E62.38263
G1 X103.890 Y109.451 E64.13803
G1 X103.890 Y108.560 E64.20676
G1 X119.996 Y124.666 E65.96216
G1 X119.996 Y123.774 E66.03088
G1 X103.890 Y107.668 E67.78629
G1 X103.890 Y106.776 E67.85501
G1 X119.996 Y122.882 E69.61042
G1 X119.996 Y121.990 E69.67914
G1 X103.890 Y105.885 E71.43455
G1 X103.890 Y104.993 E71.50327
G1 X119.996 Y121.099 E73.25868
G1 X119.996 Y120.207 E73.32740
G1 X103.890 Y104.101 E75.08281
G1 X103.890 Y103.210 E75.15153
G1 X119.996 Y119.315 E76.90694
G1 X119.996 Y118.424 E76.97566
G1 X103.890 Y102.318 E78.73107
G1 X103.890 Y101.426 E78.79979
G1 X119.996 Y117.532 E80.55520
G1 X119.996 Y116.640 E80.62392
G1 X103.890 Y100.535 E82.37933
G1 X103.890 Y99.643 E82.44805
G1 X119.996 Y115.749 E84.20346
G1 X119.996 Y114.857 E84.27218
G1 X103.890 Y98.751 E86.02759
G1 X103.890 Y97.859 E86.09631
G1 X119.996 Y113.965 E87.85172
G1 X119.996 Y113.074 E87.92044
G1 X103.890 Y96.968 E89.67584
G1 X103.890 Y96.076 E89.74457
G1 X119.996 Y112.182 E91.49997
G1 X119.996 Y111.290 E91.56870
G1 X103.890 Y95.184 E93.32410
G1 X103.890 Y94.293 E93.39283
G1 X119.996 Y110.398 E95.14823
G1 X119.996 Y109.507 E95.21695
G1 X103.890 Y93.401 E96.97236
G1 X103.890 Y92.509 E97.04108
G1 X119.996 Y108.615 E98.79649
G1 X119.996 Y107.723 E98.86521
G1 X103.890 Y91.618 E100.62062
G1 X103.890 Y90.726 E100.68934
G1 X119.996 Y106.832 E102.44475
G1 X119.996 Y105.940 E102.51347
G1 X103.890 Y89.834 E104.26888
G1 X103.890 Y88.943 E104.33760
G1 X119.996 Y105.048 E106.09301
G1 X119.996 Y104.157 E106.16173
G1 X103.890 Y88.051 E107.91714
G1 X104.203 Y87.472 E107.96786
G1 X119.996 Y103.265 E109.68922
G1 X119.996 Y102.373 E109.75794
G1 X104.370 Y86.747 E111.46107
G1 X110.612 Y86.747 F9000.000
G1 X110.996 Y87.131 E111.50295 F600.000
G1 X110.996 Y88.023 E111.57168
G1 X109.720 Y86.747 E111.71075
G1 X108.828 Y86.747 E111.77947
G1 X110.996 Y88.915 E112.01574
G1 X110.996 Y89.806 E112.08446
G1 X107.937 Y86.747 E112.41791
G1 X107.045 Y86.747 E112.48663
G1 X110.996 Y90.698 E112.91727
G1 X110.996 Y91.590 E112.98599
G1 X106.153 Y86.747 E113.51381
G1 X105.262 Y86.747 E113.58254
G1 X119.996 Y101.482 E115.18848
G1 X119.996 Y100.590 E115.25720
G1 X111.353 Y91.947 E116.19920
G1 X112.245 Y91.947 E116.26792
G1 X119.996 Y99.698 E117.11273
G1 X119.996 Y98.806 E117.18145
G1 X113.137 Y91.947 E117.92907
G1 X114.028 Y91.947 E117.99779
G1 X119.996 Y97.915 E118.64822
G1 X119.996 Y97.023 E118.71694
G1 X114.920 Y91.947 E119.27019
G1 X115.812 Y91.947 E119.33891
G1 X119.996 Y96.131 E119.79497
G1 X119.996 Y95.240 E119.86369
G1 X116.704 Y91.947 E120.22256
G1 X117.595 Y91.947 E120.29128
G1 X119.996 Y94.348 E120.55297
G1 X119.996 Y93.456 E120.62169
G1 X118.487 Y91.947 E120.78618
G1 X119.379 Y91.947 E120.85491
G1 X119.684 Y92.252 E120.88816
G1 X119.684 Y127.920 F9000.000
G1 X103.890 Y112.126 E122.60952 F600.000
G1 X103.890 Y113.018 E122.67824
G1 X118.925 Y128.053 E124.31691
G1 X118.033 Y128.053 E124.38563
G1 X103.890 Y113.910 E125.92711
G1 X103.890 Y114.802 E125.99583
G1 X117.142 Y128.053 E127.44012
G1 X116.250 Y128.053 E127.50885
G1 X103.890 Y115.693 E128.85595
G1 X103.890 Y116.585 E128.92467
G1 X115.358 Y128.053 E130.17459
G1 X114.467 Y128.053 E130.24331
G1 X103.890 Y117.477 E131.39604
G1 X103.890 Y118.368 E131.46477
G1 X113.575 Y128.053 E132.52031
G1 X112.683 Y128.053 E132.58903
G1 X103.890 Y119.260 E133.54739
G1 X103.890 Y120.152 E133.61611
G1 X111.792 Y128.053 E134.47728
G1 X110.996 Y128.149 E134.53903
G1 X103.890 Y121.043 E135.31350
G1 X103.890 Y121.935 E135.38222
G1 X110.996 Y129.041 E136.15670
G1 X110.996 Y129.933 E136.22542
G1 X103.890 Y122.827 E136.99990
G1 X103.890 Y123.718 E137.06862
G1 X110.996 Y130.824 E137.84310
G1 X110.996 Y131.716 E137.91182
G1 X103.890 Y124.610 E138.68630
G1 X103.890 Y125.502 E138.75502
G1 X110.996 Y132.608 E139.52950
G1 X110.750 Y133.253 E139.58273
G1 X103.890 Y126.394 E140.33035
G1 X103.890 Y127.285 E140.39907
G1 X109.858 Y133.253 E141.04950
G1 X108.966 Y133.253 E141.11822
G1 X103.890 Y128.177 E141.67146
G1 X103.890 Y129.069 E141.74018
G1 X108.075 Y133.253 E142.19624
G1 X107.183 Y133.253 E142.26496
G1 X103.890 Y129.960 E142.62383
G1 X103.890 Y130.852 E142.69255
G1 X106.291 Y133.253 E142.95423
G1 X105.400 Y133.253 E143.02295
G1 X103.890 Y131.744 E143.18744
G1 X104.203 Y132.948 E143.28332
G1 X104.508 Y133.253 E143.31657
G1 X120.031 Y92.000 F9000.000
G1 X128.189 Y92.000 E143.93964 F600.000
G1 E136.93964 F9000.00000
G92 E0
G1 X103.855 Y86.800 F9000.000
G1 E8.50000 F9000.00000
G1 X91.102 Y86.800 E9.47415 F600.000
G1 E2.47415 F9000.00000
G92 E0
G1 X91.102 Y133.200 F9000.000
G1 E8.50000 F9000.00000
G1 X103.855 Y133.200 E9.47415 F600.000
G1 Z0.550 F9000.000
G1 E2.47415 F9000.00000
G92 E0
G1 X120.279 Y127.664 F9000.000
G1 E8.50000 F9000.00000
G1 X128.684 Y127.664 E8.88574 F2400.000
G1 X128.684 Y128.336 E8.91657
G1 X111.279 Y128.336 E9.71537
G1 X111.279 Y133.536 E9.95402
G1 X90.599 Y133.536 E10.90310
G1 X90.599 Y132.864 E10.93393
G1 X103.607 Y132.864 E11.53092
G1 X103.607 Y87.136 E13.62960
G1 X90.599 Y87.136 E14.22660
G1 X90.599 Y86.464 E14.25743
G1 X111.279 Y86.464 E15.20651
G1 X111.279 Y91.664 E15.44516
G1 X128.684 Y91.664 E16.24396
G1 X128.684 Y92.336 E16.27478
G1 X120.279 Y92.336 E16.66053
G1 X120.279 Y127.544 E18.27640
G1 X120.936 Y127.007 F9000.000
G1 X129.341 Y127.007 E18.66214 F2400.000
G1 X129.341 Y128.993 E18.75328
G1 X111.936 Y128.993 E19.55208
G1 X111.936 Y134.193 E19.79073
G1 X89.942 Y134.193 E20.80012
G1 X89.942 Y132.207 E20.89126
G1 X102.950 Y132.207 E21.48826
G1 X102.950 Y87.793 E23.52663
G1 X89.942 Y87.793 E24.12362
G1 X89.942 Y85.807 E24.21476
G1 X111.936 Y85.807 E25.22416
G1 X111.936 Y91.007 E25.46281
G1 X129.341 Y91.007 E26.26160
G1 X129.341 Y92.993 E26.35274
G1 X120.936 Y92.993 E26.73849
G1 X120.936 Y126.887 E28.29405
G1 X121.593 Y126.350 F9000.000
G1 X129.998 Y126.350 E28.67979 F2400.000
G1 X129.998 Y129.650 E28.83124
G1 X112.593 Y129.650 E29.63004
G1 X112.593 Y134.850 E29.86869
G1 X89.285 Y134.850 E30.93840
G1 X89.285 Y131.550 E31.08985
G1 X102.293 Y131.550 E31.68685
G1 X102.293 Y88.450 E33.66490
G1 X89.285 Y88.450 E34.26189
G1 X89.285 Y85.150 E34.41335
G1 X112.593 Y85.150 E35.48306
G1 X112.593 Y90.350 E35.72171
G1 X129.998 Y90.350 E36.52050
G1 X129.998 Y93.650 E36.67196
G1 X121.593 Y93.650 E37.05770
G1 X121.593 Y126.230 E38.55294
G1 X121.593 Y127.150 F9000.000
G1 X119.594 Y127.970 F9000.000
G1 X119.913 Y127.651 E38.57389 F2400.000
G1 X119.913 Y126.710 E38.61759
G1 X118.653 Y127.970 E38.70034
G1 X117.713 Y127.970 E38.74405
G1 X119.913 Y125.769 E38.88860
G1 X119.913 Y124.829 E38.93231
G1 X116.772 Y127.970 E39.13867
G1 X115.831 Y127.970 E39.18237
G1 X119.913 Y123.888 E39.45054
G1 X119.913 Y122.947 E39.49424
G1 X114.891 Y127.970 E39.82421
G1 X113.950 Y127.970 E39.86792
G1 X119.913 Y122.007 E40.25970
G1 X119.913 Y121.066 E40.30340
G1 X113.009 Y127.970 E40.75698
G1 X112.069 Y127.970 E40.80069
G1 X119.913 Y120.125 E41.31608
G1 X119.913 Y119.185 E41.35978
G1 X105.928 Y133.170 E42.27863
G1 X106.869 Y133.170 E42.32233
G1 X110.913 Y129.125 E42.58805
G1 X110.913 Y130.066 E42.63176
G1 X107.809 Y133.170 E42.83567
G1 X108.750 Y133.170 E42.87937
G1 X110.913 Y131.007 E43.02148
G1 X110.913 Y131.947 E43.06518
G1 X109.691 Y133.170 E43.14548
G1 X110.631 Y133.170 E43.18919
G1 X110.913 Y132.888 E43.20768
G1 X104.987 Y133.170 F9000.000
G1 X119.913 Y118.244 E44.18834 F2400.000
G1 X119.913 Y117.303 E44.23204
G1 X104.047 Y133.170 E45.27451
G1 X103.974 Y132.302 E45.31496
G1 X119.913 Y116.363 E46.36222
G1 X119.913 Y115.422 E46.40592
G1 X103.974 Y131.361 E47.45318
G1 X103.974 Y130.420 E47.49688
G1 X119.913 Y114.481 E48.54413
G1 X119.913 Y113.541 E48.58784
G1 X103.974 Y129.480 E49.63509
G1 X103.974 Y128.539 E49.67880
G1 X119.913 Y112.600 E50.72605
G1 X119.913 Y111.659 E50.76975
G1 X103.974 Y127.598 E51.81701
G1 X103.974 Y126.658 E51.86071
G1 X119.913 Y110.719 E52.90797
G1 X119.913 Y109.778 E52.95167
G1 X103.974 Y125.717 E53.99892
G1 X103.974 Y124.776 E54.04263
G1 X119.913 Y108.837 E55.08988
G1 X119.913 Y107.897 E55.13358
G1 X103.974 Y123.836 E56.18084
G1 X103.974 Y122.895 E56.22454
G1 X119.913 Y106.956 E57.27180
G1 X119.913 Y106.015 E57.31550
G1 X103.974 Y121.954 E58.36275
G1 X103.974 Y121.014 E58.40646
G1 X119.913 Y105.074 E59.45371
G1 X119.913 Y104.134 E59.49741
G1 X103.974 Y120.073 E60.54467
G1 X103.974 Y119.132 E60.58837
G1 X119.913 Y103.193 E61.63563
G1 X119.913 Y102.252 E61.67933
G1 X103.974 Y118.192 E62.72658
G1 X103.974 Y117.251 E62.77029
G1 X119.913 Y101.312 E63.81754
G1 X119.913 Y100.371 E63.86124
G1 X103.974 Y116.310 E64.90850
G1 X103.974 Y115.370 E64.95220
G1 X119.913 Y99.430 E65.99946
G1 X119.913 Y98.490 E66.04316
G1 X103.974 Y114.429 E67.09041
G1 X103.974 Y113.488 E67.13412
G1 X119.913 Y97.549 E68.18137
G1 X119.913 Y96.608 E68.22508
G1 X103.974 Y112.548 E69.27233
G1 X103.974 Y111.607 E69.31603
G1 X119.913 Y95.668 E70.36329
G1 X119.913 Y94.727 E70.40699
G1 X103.974 Y110.666 E71.45425
G1 X103.974 Y109.725 E71.49795
G1 X119.913 Y93.786 E72.54520
G1 X119.913 Y92.846 E72.58891
G1 X103.974 Y108.785 E73.63616
G1 X103.974 Y107.844 E73.67986
G1 X119.787 Y92.030 E74.71887
G1 X118.847 Y92.030 E74.76258
G1 X103.974 Y106.903 E75.73978
G1 X103.974 Y105.963 E75.78348
G1 X117.906 Y92.030 E76.69888
G1 X116.965 Y92.030 E76.74259
G1 X103.974 Y105.022 E77.59618
G1 X103.974 Y104.081 E77.63988
G1 X116.025 Y92.030 E78.43167
G1 X115.084 Y92.030 E78.47537
G1 X103.974 Y103.141 E79.20535
G1 X103.974 Y102.200 E79.24906
G1 X114.143 Y92.030 E79.91723
G1 X113.203 Y92.030 E79.96094
G1 X103.974 Y101.259 E80.56731
G1 X103.974 Y100.319 E80.61101
G1 X112.262 Y92.030 E81.15557
G1 X111.321 Y92.030 E81.19928
G1 X103.974 Y99.378 E81.68204
G1 X103.974 Y98.437 E81.72574
G1 X110.913 Y91.498 E82.18167
G1 X110.913 Y90.557 E82.22537
G1 X103.974 Y97.497 E82.68130
G1 X103.974 Y96.556 E82.72500
G1 X110.913 Y89.617 E83.18093
G1 X110.913 Y88.676 E83.22463
G1 X103.974 Y95.615 E83.68056
G1 X103.974 Y94.675 E83.72426
G1 X110.913 Y87.735 E84.18019
G1 X110.877 Y86.830 E84.22226
G1 X103.974 Y93.734 E84.67584
G1 X103.974 Y92.793 E84.71955
G1 X109.937 Y86.830 E85.11132
G1 X108.996 Y86.830 E85.15502
G1 X103.974 Y91.853 E85.48499
G1 X103.974 Y90.912 E85.52870
G1 X108.055 Y86.830 E85.79686
G1 X107.114 Y86.830 E85.84056
G1 X103.974 Y89.971 E86.04692
G1 X103.974 Y89.030 E86.09063
G1 X106.174 Y86.830 E86.23518
G1 X105.233 Y86.830 E86.27888
G1 X103.974 Y88.090 E86.36163
G1 X103.974 Y87.149 E86.40533
G1 X104.292 Y86.830 E86.42627
M106 S255
G1 Z0.750 F9000.000
G1 X120.279 Y127.664 F9000.000
G1 X128.864 Y127.664 E86.82028 F2400.000
G1 X128.864 Y128.336 E86.85110
G1 X111.279 Y128.336 E87.65816
G1 X111.279 Y133.536 E87.89681
G1 X90.415 Y133.536 E88.85438
G1 X90.415 Y132.864 E88.88520
G1 X103.607 Y132.864 E89.49068
G1 X103.607 Y87.136 E91.58936
G1 X90.415 Y87.136 E92.19483
G1 X90.415 Y86.464 E92.22566
G1 X111.279 Y86.464 E93.18322
G1 X111.279 Y91.664 E93.42188
G1 X128.864 Y91.664 E94.22893
G1 X128.864 Y92.336 E94.25976
G1 X120.279 Y92.336 E94.65376
G1 X120.279 Y127.544 E96.26963
G1 X120.936 Y127.007 F9000.000
G1 X129.521 Y127.007 E96.66364 F2400.000
G1 X129.521 Y128.993 E96.75478
G1 X111.936 Y128.993 E97.56184
G1 X111.936 Y134.193 E97.80049
G1 X89.758 Y134.193 E98.81836
G1 X89.758 Y132.207 E98.90950
G1 X102.950 Y132.207 E99.51498
G1 X102.950 Y87.793 E101.55335
G1 X89.758 Y87.793 E102.15882
G1 X89.758 Y85.807 E102.24996
G1 X111.936 Y85.807 E103.26784
G1 X111.936 Y91.007 E103.50649
G1 X129.521 Y91.007 E104.31355
G1 X129.521 Y92.993 E104.40469
G1 X120.936 Y92.993 E104.79869
G1 X120.936 Y126.887 E106.35425
G1 X121.593 Y126.350 F9000.000
G1 X130.178 Y126.350 E106.74825 F2400.000
G1 X130.178 Y129.650 E106.89971
