; generated by Slic3r 1.2.9 on 2020-08-26 at 10:32:36

; external perimeters extrusion width = 0.55mm
; perimeters extrusion width = 0.30mm
; infill extrusion width = 0.30mm
; solid infill extrusion width = 0.30mm
; top infill extrusion width = 0.30mm

M104 S240 ; set temperature
G28 ; home all axes
G1 Z5 F5000 ; lift nozzle

M109 S240 ; wait for temperature to be reached
G21 ; set units to millimeters
G90 ; use absolute coordinates
M82 ; use absolute distances for extrusion
G92 E0
G1 Z0.350 F12000.000
G1 E-8.00000 F2400.00000
G92 E0
G1 X63.539 Y67.198 F12000.000
G1 E8.00000 F2400.00000
M204 S2000
G1 X64.901 Y66.825 E8.04622 F600.000
G1 X85.099 Y66.825 E8.70718
G1 X86.494 Y67.218 E8.75460
G1 X87.463 Y68.248 E8.80088 F600.000
G1 X87.843 Y69.003 E8.82853
G1 X88.164 Y69.744 E8.85495
G1 X88.351 Y70.238 E8.87226
G1 X88.623 Y71.086 E8.90140
G1 X88.824 Y71.868 E8.92780
G1 X88.931 Y72.385 E8.94510
G1 X89.057 Y73.182 E8.97150
G1 X89.115 Y73.708 E8.98882
G1 X89.150 Y74.165 E9.00380
G1 X89.174 Y74.959 E9.02979
G1 X89.166 Y75.487 E9.04709
G1 X89.115 Y76.292 E9.07348
G1 X89.057 Y76.818 E9.09081
G1 X88.931 Y77.615 E9.11720
G1 X88.740 Y78.484 E9.14633
G1 X88.600 Y78.995 E9.16368
G1 X88.350 Y79.763 E9.19008
G1 X88.164 Y80.257 E9.20736
G1 X87.843 Y80.997 E9.23377
G1 X87.463 Y81.752 E9.26142
G1 X86.463 Y82.801 E9.30884
G1 X85.099 Y83.175 E9.35513
G1 X64.901 Y83.175 E10.01608
G1 X63.506 Y82.782 E10.06350
G1 X62.537 Y81.752 E10.10978
G1 X62.008 Y80.668 E10.14925
G1 X61.649 Y79.762 E10.18115
G1 X61.401 Y78.998 E10.20743
G1 X61.281 Y78.565 E10.22213
G1 X61.158 Y78.051 E10.23942
G1 X61.007 Y77.259 E10.26582
G1 X60.885 Y76.292 E10.29771
G1 X60.834 Y75.487 E10.32410
G1 X60.826 Y75.040 E10.33875
G1 X60.834 Y74.513 E10.35598
G1 X60.885 Y73.708 E10.38238
G1 X61.007 Y72.741 E10.41427
G1 X61.158 Y71.949 E10.44068
G1 X61.281 Y71.435 E10.45797
G1 X61.400 Y71.005 E10.47257
G1 X61.649 Y70.241 E10.49886
G1 X62.008 Y69.332 E10.53084
G1 X62.538 Y68.247 E10.57037
G1 X63.497 Y67.242 E10.61582
G1 X63.706 Y67.362 F12000.000
G1 X64.901 Y67.050 E10.65625 F600.000
G1 X85.099 Y67.050 E11.31720
G1 X86.428 Y67.442 E11.36254
G1 X87.264 Y68.354 E11.40301 F600.000
G1 X87.606 Y69.026 E11.42771
G1 X87.818 Y69.496 E11.44456
G1 X88.112 Y70.239 E11.47071
G1 X88.255 Y70.654 E11.48508
G1 X88.521 Y71.568 E11.51625
G1 X88.695 Y72.346 E11.54231
G1 X88.772 Y72.781 E11.55677
G1 X88.891 Y73.726 E11.58795
G1 X88.941 Y74.524 E11.61410
G1 X88.949 Y75.038 E11.63094
G1 X88.925 Y75.824 E11.65667
G1 X88.891 Y76.274 E11.67145
G1 X88.835 Y76.786 E11.68832
G1 X88.710 Y77.576 E11.71448
G1 X88.502 Y78.506 E11.74566
G1 X88.385 Y78.929 E11.76003
G1 X88.138 Y79.690 E11.78619
G1 X87.787 Y80.576 E11.81737
G1 X87.264 Y81.646 E11.85638
G1 X86.296 Y82.638 E11.90172
G1 X85.099 Y82.950 E11.94219
G1 X64.901 Y82.950 E12.60314
G1 X63.572 Y82.558 E12.64849
G1 X62.736 Y81.646 E12.68896
G1 X62.362 Y80.905 E12.71615
G1 X62.044 Y80.170 E12.74236
G1 X61.862 Y79.689 E12.75918
G1 X61.615 Y78.929 E12.78533
G1 X61.479 Y78.432 E12.80220
G1 X61.305 Y77.651 E12.82839
G1 X61.214 Y77.129 E12.84570
G1 X61.109 Y76.274 E12.87389
G1 X61.059 Y75.476 E12.90005
G1 X61.050 Y75.036 E12.91446
G1 X61.059 Y74.524 E12.93124
G1 X61.109 Y73.726 E12.95740
G1 X61.165 Y73.214 E12.97426
G1 X61.290 Y72.424 E13.00042
G1 X61.395 Y71.920 E13.01728
G1 X61.594 Y71.145 E13.04344
G1 X61.861 Y70.314 E13.07203
G1 X62.044 Y69.829 E13.08897
G1 X62.362 Y69.095 E13.11515
G1 X62.737 Y68.352 E13.14239
G1 X63.664 Y67.405 E13.18576
G1 X63.871 Y67.528 F12000.000
G1 X64.901 Y67.275 E13.22047 F600.000
G1 X85.099 Y67.275 E13.88143
G1 X86.359 Y67.666 E13.92459
G1 X87.065 Y68.459 E13.95934 F600.000
G1 X87.404 Y69.125 E13.98380
G1 X87.610 Y69.582 E14.00019
G1 X87.901 Y70.318 E14.02611
G1 X88.063 Y70.792 E14.04249
G1 X88.189 Y71.205 E14.05662
G1 X88.387 Y71.972 E14.08256
G1 X88.561 Y72.887 E14.11303
G1 X88.660 Y73.673 E14.13896
G1 X88.695 Y74.104 E14.15309
G1 X88.725 Y75.035 E14.18357
G1 X88.667 Y76.257 E14.22361
G1 X88.612 Y76.755 E14.24001
G1 X88.488 Y77.537 E14.26594
G1 X88.285 Y78.447 E14.29643
G1 X87.925 Y79.617 E14.33649
G1 X87.582 Y80.483 E14.36697
G1 X87.065 Y81.541 E14.40551
G1 X86.130 Y82.472 E14.44868
G1 X85.099 Y82.725 E14.48343
G1 X64.901 Y82.725 E15.14438
G1 X63.641 Y82.334 E15.18755
G1 X62.935 Y81.541 E15.22229
G1 X62.787 Y81.262 E15.23263
G1 X62.567 Y80.812 E15.24902
G1 X62.252 Y80.084 E15.27500
G1 X62.075 Y79.616 E15.29136
G1 X61.811 Y78.795 E15.31957
G1 X61.613 Y78.027 E15.34553
G1 X61.512 Y77.537 E15.36189
G1 X61.379 Y76.687 E15.39005
G1 X61.305 Y75.896 E15.41605
G1 X61.275 Y74.962 E15.44663
G1 X61.300 Y74.171 E15.47253
G1 X61.340 Y73.673 E15.48887
G1 X61.439 Y72.887 E15.51481
G1 X61.525 Y72.394 E15.53119
G1 X61.698 Y71.621 E15.55711
G1 X61.830 Y71.137 E15.57353
G1 X62.075 Y70.383 E15.59946
G1 X62.252 Y69.915 E15.61583
G1 X62.567 Y69.188 E15.64177
G1 X62.936 Y68.457 E15.66855
G1 X63.829 Y67.570 E15.70973
G1 E7.70973 F2400.00000
G92 E0
G1 X84.350 Y78.400 F12000.000
G1 E8.00000 F2400.00000
G1 X79.650 Y78.400 E8.15379 F600.000
G1 X79.650 Y76.238 E8.22453
G1 X79.533 Y76.222 E8.22839
G1 X79.470 Y76.452 E8.23619
G1 X79.314 Y76.867 E8.25069
G1 X79.119 Y77.264 E8.26518
G1 X78.888 Y77.642 E8.27967
G1 X78.622 Y77.996 E8.29416
G1 X78.324 Y78.324 E8.30865
G1 X77.996 Y78.622 E8.32314
G1 X77.642 Y78.888 E8.33764
G1 X77.264 Y79.119 E8.35213
G1 X76.867 Y79.314 E8.36662
G1 X76.448 Y79.472 E8.38127
G1 X75.885 Y79.617 E8.40028
G1 X75.442 Y79.680 E8.41492
G1 X75.000 Y79.700 E8.42941
G1 X74.558 Y79.680 E8.44390
G1 X74.115 Y79.617 E8.45855
G1 X73.554 Y79.473 E8.47748
G1 X73.133 Y79.314 E8.49220
G1 X72.736 Y79.119 E8.50670
G1 X72.358 Y78.888 E8.52119
G1 X72.004 Y78.622 E8.53568
G1 X71.676 Y78.324 E8.55017
G1 X71.378 Y77.996 E8.56467
G1 X71.112 Y77.642 E8.57916
G1 X70.881 Y77.264 E8.59365
G1 X70.686 Y76.867 E8.60814
G1 X70.528 Y76.447 E8.62284
G1 X70.468 Y76.214 E8.63070
G1 X70.350 Y76.229 E8.63459
G1 X70.350 Y78.400 E8.70563
G1 X65.650 Y78.400 E8.85942
G1 X65.650 Y71.600 E9.08193
G1 X70.350 Y71.600 E9.23572
G1 X70.350 Y73.762 E9.30645
G1 X70.467 Y73.777 E9.31031
G1 X70.530 Y73.547 E9.31810
G1 X70.686 Y73.133 E9.33260
G1 X70.881 Y72.736 E9.34709
G1 X71.112 Y72.358 E9.36158
G1 X71.378 Y72.004 E9.37607
G1 X71.676 Y71.676 E9.39056
G1 X72.004 Y71.378 E9.40505
G1 X72.358 Y71.112 E9.41955
G1 X72.736 Y70.881 E9.43404
G1 X73.133 Y70.686 E9.44853
G1 X73.547 Y70.530 E9.46302
G1 X73.975 Y70.413 E9.47751
G1 X74.415 Y70.336 E9.49216
G1 X74.993 Y70.299 E9.51109
G1 X75.442 Y70.320 E9.52581
G1 X75.881 Y70.383 E9.54031
G1 X76.311 Y70.486 E9.55480
G1 X76.735 Y70.631 E9.56944
G1 X77.258 Y70.877 E9.58838
G1 X77.642 Y71.112 E9.60310
G1 X77.996 Y71.378 E9.61759
G1 X78.324 Y71.676 E9.63208
G1 X78.622 Y72.004 E9.64658
G1 X78.888 Y72.358 E9.66107
G1 X79.119 Y72.736 E9.67557
G1 X79.318 Y73.142 E9.69035
G1 X79.531 Y73.761 E9.71179
G1 X79.650 Y73.747 E9.71571
G1 X79.650 Y71.600 E9.78596
G1 X84.350 Y71.600 E9.93975
G1 X84.350 Y78.340 E10.16029
G1 E2.16029 F2400.00000
G92 E0
G1 X79.226 Y76.464 F12000.000
G1 E8.00000 F2400.00000
G1 X79.107 Y76.777 E8.01098 F600.000
G1 X78.922 Y77.156 E8.02477
G1 X78.701 Y77.515 E8.03857
G1 X78.448 Y77.853 E8.05237
G1 X78.165 Y78.165 E8.06617
G1 X77.853 Y78.448 E8.07996
G1 X77.515 Y78.701 E8.09376
G1 X77.156 Y78.922 E8.10756
G1 X76.777 Y79.107 E8.12136
G1 X76.380 Y79.257 E8.13525
G1 X75.842 Y79.396 E8.15345
G1 X75.421 Y79.455 E8.16735
G1 X75.000 Y79.475 E8.18114
G1 X74.579 Y79.455 E8.19494
G1 X74.159 Y79.396 E8.20883
G1 X73.622 Y79.258 E8.22696
G1 X73.223 Y79.107 E8.24093
G1 X72.844 Y78.922 E8.25473
G1 X72.485 Y78.701 E8.26852
G1 X72.147 Y78.448 E8.28232
G1 X71.835 Y78.165 E8.29612
G1 X71.552 Y77.853 E8.30992
G1 X71.299 Y77.515 E8.32371
G1 X71.078 Y77.156 E8.33751
G1 X70.893 Y76.777 E8.35131
G1 X70.742 Y76.379 E8.36525
G1 X70.604 Y75.841 E8.38340
G1 X70.545 Y75.421 E8.39730
G1 X70.525 Y74.997 E8.41119
G1 X70.559 Y74.445 E8.42930
G1 X70.632 Y74.024 E8.44328
G1 X70.744 Y73.617 E8.45708
G1 X70.893 Y73.223 E8.47088
G1 X71.078 Y72.844 E8.48468
G1 X71.299 Y72.485 E8.49848
G1 X71.552 Y72.147 E8.51227
G1 X71.835 Y71.835 E8.52607
G1 X72.147 Y71.552 E8.53987
G1 X72.485 Y71.299 E8.55367
G1 X72.844 Y71.078 E8.56746
G1 X73.223 Y70.893 E8.58126
G1 X73.617 Y70.744 E8.59506
G1 X74.024 Y70.632 E8.60886
G1 X74.442 Y70.559 E8.62275
G1 X74.995 Y70.525 E8.64087 F600.000
G1 X75.421 Y70.545 E8.65484
G1 X75.839 Y70.604 E8.66864
G1 X76.249 Y70.702 E8.68244
G1 X76.650 Y70.840 E8.69633
G1 X77.151 Y71.076 E8.71446
G1 X77.515 Y71.299 E8.72843
G1 X77.853 Y71.552 E8.74223
G1 X78.165 Y71.835 E8.75602
G1 X78.448 Y72.147 E8.76982
G1 X78.701 Y72.485 E8.78362
G1 X78.922 Y72.844 E8.79742
G1 X79.110 Y73.229 E8.81145
G1 X79.297 Y73.749 E8.82951
G1 X79.396 Y74.161 E8.84340
G1 X79.455 Y74.579 E8.85720
G1 X79.475 Y75.000 E8.87100
G1 X79.455 Y75.424 E8.88489
G1 X79.369 Y75.971 E8.90300
G1 X79.247 Y76.407 E8.91784
G1 X79.015 Y76.384 F12000.000
G1 X78.901 Y76.688 E8.92847 F600.000
G1 X78.724 Y77.048 E8.94157
G1 X78.515 Y77.389 E8.95468
G1 X78.275 Y77.709 E8.96778
G1 X78.005 Y78.005 E8.98088
G1 X77.709 Y78.275 E8.99399
G1 X77.389 Y78.515 E9.00709
G1 X77.048 Y78.724 E9.02019
G1 X76.688 Y78.901 E9.03330
G1 X76.312 Y79.043 E9.04644
G1 X75.798 Y79.175 E9.06383
G1 X75.400 Y79.231 E9.07697
G1 X75.000 Y79.250 E9.09008
G1 X74.600 Y79.231 E9.10318
G1 X74.202 Y79.175 E9.11632
G1 X73.690 Y79.043 E9.13364
G1 X73.312 Y78.901 E9.14685
G1 X72.952 Y78.724 E9.15996
G1 X72.611 Y78.515 E9.17306
G1 X72.291 Y78.275 E9.18616
G1 X71.995 Y78.005 E9.19927
G1 X71.725 Y77.709 E9.21237
G1 X71.485 Y77.389 E9.22547
G1 X71.276 Y77.048 E9.23858
G1 X71.099 Y76.688 E9.25168
G1 X70.957 Y76.311 E9.26487
G1 X70.825 Y75.798 E9.28221
G1 X70.769 Y75.400 E9.29535
G1 X70.750 Y74.999 E9.30850
G1 X70.783 Y74.471 E9.32579
G1 X70.852 Y74.073 E9.33903
G1 X70.958 Y73.687 E9.35213
G1 X71.099 Y73.312 E9.36523
G1 X71.276 Y72.952 E9.37834
G1 X71.485 Y72.611 E9.39144
G1 X71.725 Y72.291 E9.40455
G1 X71.995 Y71.995 E9.41765
G1 X72.291 Y71.725 E9.43075
G1 X72.611 Y71.485 E9.44386
G1 X72.952 Y71.276 E9.45696
G1 X73.312 Y71.099 E9.47006
G1 X73.687 Y70.958 E9.48317
G1 X74.073 Y70.852 E9.49627
G1 X74.468 Y70.783 E9.50941
G1 X74.997 Y70.750 E9.52673 F600.000
G1 X75.400 Y70.769 E9.53994
G1 X75.796 Y70.825 E9.55305
G1 X76.186 Y70.919 E9.56615
G1 X76.566 Y71.049 E9.57929
G1 X77.044 Y71.274 E9.59661
G1 X77.389 Y71.485 E9.60982
G1 X77.709 Y71.725 E9.62293
G1 X78.005 Y71.995 E9.63603
G1 X78.275 Y72.291 E9.64913
G1 X78.515 Y72.611 E9.66224
G1 X78.724 Y72.953 E9.67534
G1 X78.903 Y73.317 E9.68862
G1 X79.081 Y73.813 E9.70587
G1 X79.175 Y74.204 E9.71902
G1 X79.231 Y74.600 E9.73212
G1 X79.250 Y75.000 E9.74522
G1 X79.231 Y75.401 E9.75836
G1 X79.149 Y75.923 E9.77566
G1 X79.037 Y76.328 E9.78940
G1 X79.228 Y76.630 F12000.000
G1 X79.875 Y78.175 F12000.000
G1 X79.875 Y71.825 E9.99720 F600.000
G1 X84.125 Y71.825 E10.13627
G1 X84.125 Y78.175 E10.34406
G1 X79.935 Y78.175 E10.48117
G1 X80.100 Y77.950 F12000.000
G1 X80.100 Y72.050 E10.67424 F600.000
G1 X83.900 Y72.050 E10.79859
G1 X83.900 Y77.950 E10.99167
G1 X80.160 Y77.950 E11.11406
G1 X79.700 Y77.950 F12000.000
G1 E3.11406 F2400.00000
G92 E0
G1 X70.125 Y78.175 F12000.000
G1 E8.00000 F2400.00000
G1 X65.875 Y78.175 E8.13907 F600.000
G1 X65.875 Y71.825 E8.34686
G1 X70.125 Y71.825 E8.48593
G1 X70.125 Y78.115 E8.69176
G1 X69.900 Y77.950 F12000.000
G1 X66.100 Y77.950 E8.81612 F600.000
G1 X66.100 Y72.050 E9.00919
G1 X69.900 Y72.050 E9.13354
G1 X69.900 Y77.890 E9.32465
G1 X69.900 Y78.350 F12000.000
G1 X70.575 Y78.625 F12000.000
G1 X70.575 Y77.383 E9.36528 F600.000
G1 X70.673 Y77.355 E9.36862
G1 X70.926 Y77.769 E9.38448
G1 X71.205 Y78.140 E9.39966
G1 X71.517 Y78.483 E9.41485
G1 X71.860 Y78.795 E9.43004
G1 X72.231 Y79.074 E9.44522
G1 X72.627 Y79.316 E9.46041
G1 X73.161 Y79.565 E9.47967
G1 X73.141 Y79.675 E9.48335
G1 X65.408 Y79.675 E9.73639
G1 X65.203 Y79.240 E9.75215
G1 X64.960 Y78.624 E9.77380
G1 X64.659 Y77.648 E9.80722
G1 X64.514 Y77.000 E9.82895
G1 X64.409 Y76.338 E9.85090
G1 X64.346 Y75.670 E9.87284
G1 X64.325 Y75.000 E9.89479
G1 X64.346 Y74.330 E9.91673
G1 X64.409 Y73.662 E9.93868
G1 X64.514 Y73.000 E9.96063
G1 X64.660 Y72.345 E9.98257
G1 X64.848 Y71.701 E10.00452
G1 X65.075 Y71.070 E10.02646
G1 X65.407 Y70.325 E10.05318
G1 X73.140 Y70.325 E10.30624
G1 X73.161 Y70.435 E10.30993
G1 X72.627 Y70.684 E10.32919
G1 X72.231 Y70.926 E10.34437
G1 X71.860 Y71.205 E10.35956
G1 X71.517 Y71.517 E10.37474
G1 X71.205 Y71.860 E10.38993
G1 X70.926 Y72.231 E10.40512
G1 X70.673 Y72.645 E10.42097
G1 X70.575 Y72.617 E10.42432
G1 X70.575 Y71.375 E10.46494
G1 X65.425 Y71.375 E10.63345
G1 X65.425 Y78.625 E10.87068
G1 X70.515 Y78.625 E11.03723
G1 E3.03723 F2400.00000
G92 E0
G1 X79.425 Y78.625 F12000.000
G1 E8.00000 F2400.00000
G1 X84.575 Y78.625 E8.16851 F600.000
G1 X84.575 Y71.375 E8.40574
G1 X79.425 Y71.375 E8.57425
G1 X79.425 Y72.617 E8.61487
G1 X79.327 Y72.645 E8.61822
G1 X79.074 Y72.231 E8.63407
G1 X78.795 Y71.860 E8.64926
G1 X78.483 Y71.517 E8.66444
G1 X78.140 Y71.205 E8.67963
G1 X77.768 Y70.926 E8.69482
G1 X77.365 Y70.679 E8.71030
G1 X76.836 Y70.430 E8.72944
G1 X76.859 Y70.325 E8.73298
G1 X84.588 Y70.325 E8.98589
G1 X84.927 Y71.076 E9.01288
G1 X85.152 Y71.701 E9.03461
G1 X85.340 Y72.345 E9.05656
G1 X85.486 Y73.000 E9.07850
G1 X85.591 Y73.662 E9.10045
G1 X85.654 Y74.330 E9.12239
G1 X85.675 Y75.000 E9.14434
G1 X85.654 Y75.670 E9.16628
G1 X85.591 Y76.338 E9.18823
G1 X85.486 Y77.000 E9.21018
G1 X85.340 Y77.655 E9.23212
G1 X85.152 Y78.299 E9.25407
G1 X84.925 Y78.930 E9.27601
G1 X84.593 Y79.675 E9.30273
G1 X76.860 Y79.675 E9.55580
G1 X76.839 Y79.565 E9.55948
G1 X77.373 Y79.316 E9.57874
G1 X77.769 Y79.074 E9.59392
G1 X78.140 Y78.795 E9.60911
G1 X78.483 Y78.483 E9.62430
G1 X78.795 Y78.140 E9.63948
G1 X79.074 Y77.769 E9.65467
G1 X79.327 Y77.355 E9.67052
G1 X79.425 Y77.383 E9.67387
G1 X79.425 Y78.565 E9.71253
G1 X84.731 Y79.900 F12000.000
G1 X65.265 Y79.900 E10.34952 F600.000
G1 X64.997 Y79.329 E10.37019
G1 X64.747 Y78.699 E10.39235
G1 X64.441 Y77.706 E10.42635
G1 X64.293 Y77.042 E10.44861
G1 X64.186 Y76.366 E10.47101
G1 X64.122 Y75.684 E10.49342
G1 X64.100 Y75.000 E10.51583
G1 X64.122 Y74.316 E10.53824
G1 X64.186 Y73.634 E10.56065
G1 X64.293 Y72.958 E10.58305
G1 X64.443 Y72.289 E10.60546
G1 X64.634 Y71.632 E10.62787
G1 X64.866 Y70.987 E10.65028
G1 X65.138 Y70.359 E10.67270
G1 X65.269 Y70.100 E10.68220
G1 X84.733 Y70.100 E11.31915
G1 X85.136 Y70.992 E11.35118
G1 X85.366 Y71.632 E11.37344
G1 X85.557 Y72.289 E11.39584
G1 X85.707 Y72.958 E11.41825
G1 X85.814 Y73.634 E11.44066
G1 X85.878 Y74.316 E11.46307
G1 X85.900 Y75.000 E11.48548
G1 X85.878 Y75.684 E11.50788
G1 X85.814 Y76.366 E11.53029
G1 X85.707 Y77.042 E11.55270
G1 X85.557 Y77.711 E11.57511
G1 X85.366 Y78.368 E11.59752
G1 X85.134 Y79.013 E11.61992
G1 X84.758 Y79.847 E11.64987
G1 X84.869 Y80.125 F12000.000
G1 X65.127 Y80.125 E12.29591 F600.000
G1 X64.790 Y79.418 E12.32154
G1 X64.535 Y78.774 E12.34423
G1 X64.224 Y77.764 E12.37880
G1 X64.072 Y77.085 E12.40158
G1 X63.963 Y76.394 E12.42445
G1 X63.897 Y75.699 E12.44732
G1 X63.875 Y75.000 E12.47019
G1 X63.897 Y74.301 E12.49306
G1 X63.963 Y73.606 E12.51593
G1 X64.072 Y72.915 E12.53880
G1 X64.225 Y72.233 E12.56167
G1 X64.420 Y71.562 E12.58454
G1 X64.656 Y70.905 E12.60741
G1 X64.934 Y70.263 E12.63029
G1 X65.131 Y69.875 E12.64454
G1 X84.873 Y69.875 E13.29058
G1 X85.345 Y70.907 E13.32772
G1 X85.580 Y71.562 E13.35050
G1 X85.775 Y72.233 E13.37337
G1 X85.928 Y72.915 E13.39624
G1 X86.037 Y73.606 E13.41911
G1 X86.103 Y74.301 E13.44198
G1 X86.125 Y75.000 E13.46485
G1 X86.103 Y75.699 E13.48772
G1 X86.037 Y76.394 E13.51059
G1 X85.928 Y77.085 E13.53346
G1 X85.775 Y77.767 E13.55633
G1 X85.580 Y78.438 E13.57920
G1 X85.344 Y79.095 E13.60207
G1 X85.066 Y79.737 E13.62495
G1 X84.896 Y80.072 E13.63724
G1 X85.007 Y80.350 F12000.000
G1 X64.992 Y80.350 E14.29222 F600.000
G1 X64.584 Y79.508 E14.32285
G1 X64.322 Y78.848 E14.34606
G1 X64.006 Y77.821 E14.38122
G1 X63.851 Y77.127 E14.40451
G1 X63.740 Y76.423 E14.42784
G1 X63.672 Y75.713 E14.45118
G1 X63.650 Y75.000 E14.47451
G1 X63.672 Y74.287 E14.49784
G1 X63.740 Y73.577 E14.52118
G1 X63.851 Y72.873 E14.54451
